; generated by PrusaSlicer 2.5.1+win64 on 2023-04-13 at 00:59:09 UTC


;
;
; 

; external perimeters extrusion width = 0.45mm
; perimeters extrusion width = 0.45mm
; infill extrusion width = 0.45mm
; solid infill extrusion width = 0.45mm
; top infill extrusion width = 0.40mm
; first layer extrusion width = 0.42mm

M73 P0 R17
M73 Q0 S17
M201 X1000 Y1000 Z200 E5000 ; sets maximum accelerations, mm/sec^2
M203 X200 Y200 Z12 E120 ; sets maximum feedrates, mm / sec
M204 P1250 R1250 T1250 ; sets acceleration (P, T) and retract acceleration (R), mm/sec^2
M205 X8.00 Y8.00 Z0.40 E4.50 ; sets the jerk limits, mm/sec
M205 S0 T0 ; sets the minimum extruding and travel feed rate, mm/sec
M107
;TYPE:Custom
M862.3 P "MK3S" ; printer model check
M862.1 P0.4 ; nozzle diameter check
M115 U3.12.2 ; tell printer latest fw version
G90 ; use absolute coordinates
M83 ; extruder relative mode
M104 S215 ; set extruder temp
M140 S60 ; set bed temp
M190 S60 ; wait for bed temp
M109 S215 ; wait for extruder temp
G28 W ; home all without mesh bed level
G80 ; mesh bed leveling

G1 Z0.2 F720
G1 Y-3 F1000 ; go outside print area
G92 E0
G1 X60 E9 F1000 ; intro line
G1 X100 E12.5 F1000 ; intro line

G92 E0
M221 S95

; Don't change E values below. Excessive value can damage the printer.
M907 E430 ; set extruder motor current
G21 ; set units to millimeters
G90 ; use absolute coordinates
M83 ; use relative distances for extrusion
M900 K0.05 ; Filament gcode LA 1.5
M900 K30 ; Filament gcode LA 1.0
M107
;LAYER_CHANGE
;Z:0.2
;HEIGHT:0.2
;BEFORE_LAYER_CHANGE
G92 E0.0
;0.2


G1 Z.2 F720
;AFTER_LAYER_CHANGE
;0.2
; printing object dome.stl id:0 copy 0
G1 E-.8 F2100
G1 Z.6 F720
G1 X105.391 Y88.546 F10800
G1 Z.2 F720
G1 E.8 F2100
M204 S800
;TYPE:External perimeter
;WIDTH:0.399946
G1 F1068
G1 X106.125 Y87.709 E.03304
G1 X106.9 Y86.9 E.03327
G1 X107.709 Y86.125 E.03327
G1 X108.546 Y85.391 E.03304
G1 X109.414 Y84.694 E.03304
G1 X110.318 Y84.032 E.03327
G1 X111.25 Y83.409 E.03327
G1 X112.201 Y82.832 E.03304
G1 X113.089 Y82.344 E.03007
;WIDTH:0.403916
G1 X114.178 Y81.803 E.0365
;WIDTH:0.399948
G1 X115.204 Y81.351 E.03329
G1 X116.249 Y80.945 E.03327
G1 X117.303 Y80.587 E.03304
G1 X118.371 Y80.276 E.03304
G1 X119.46 Y80.009 E.03327
G1 X120.551 Y79.792 E.03304
G1 X121.659 Y79.621 E.03327
G1 X122.773 Y79.499 E.03327
G1 X123.883 Y79.427 E.03304
G1 X124.896 Y79.404 E.03007
;WIDTH:0.40392
G1 X126.112 Y79.426 E.0365
;WIDTH:0.399946
G1 X127.231 Y79.5 E.03329
G1 X128.337 Y79.621 E.03304
G1 X129.445 Y79.791 E.03327
G1 X130.544 Y80.01 E.03327
G1 X131.625 Y80.274 E.03304
G1 X132.694 Y80.586 E.03304
G1 X133.661 Y80.914 E.03032
G1 X134.792 Y81.349 E.03597
G1 X135.818 Y81.801 E.03329
G1 X136.823 Y82.296 E.03327
G1 X137.799 Y82.832 E.03304
G1 X138.75 Y83.409 E.03304
G1 X139.682 Y84.032 E.03327
G1 X140.586 Y84.694 E.03327
G1 X141.454 Y85.391 E.03304
G1 X142.296 Y86.13 E.03327
G1 X143.1 Y86.9 E.03304
G1 X143.87 Y87.704 E.03304
G1 X144.609 Y88.546 E.03327
G1 X145.306 Y89.414 E.03304
G1 X145.968 Y90.318 E.03327
G1 X146.591 Y91.25 E.03327
G1 X147.168 Y92.201 E.03304
G1 X147.656 Y93.089 E.03007
;WIDTH:0.403916
G1 X148.197 Y94.178 E.0365
;WIDTH:0.399944
G1 X148.651 Y95.208 E.03341
G1 X149.054 Y96.245 E.03304
G1 X149.38 Y97.204 E.03007
;WIDTH:0.403916
G1 X149.724 Y98.37 E.0365
;WIDTH:0.399942
G1 X149.992 Y99.463 E.03341
G1 X150.209 Y100.555 E.03304
G1 X150.378 Y101.655 E.03304
G1 X150.5 Y102.769 E.03327
M73 Q1 S17
G1 X150.572 Y103.887 E.03327
G1 X150.598 Y105 E.03305
;WIDTH:0.399946
G1 X150.573 Y106.117 E.03314
G1 X150.501 Y107.227 E.03304
G1 X150.379 Y108.341 E.03327
M73 P1 R17
G1 X150.224 Y109.347 E.0302
G1 X149.991 Y110.541 E.03612
G1 X149.727 Y111.621 E.03303
G1 X149.413 Y112.697 E.03327
G1 X149.087 Y113.657 E.03007
;WIDTH:0.403914
G1 X148.651 Y114.792 E.0365
;WIDTH:0.399946
G1 X148.199 Y115.818 E.03329
G1 X147.707 Y116.816 E.03304
G1 X147.168 Y117.799 E.03327
G1 X146.591 Y118.75 E.03304
G1 X145.968 Y119.682 E.03327
G1 X145.31 Y120.58 E.03304
G1 X144.609 Y121.454 E.03327
G1 X143.875 Y122.291 E.03304
G1 X143.1 Y123.1 E.03327
G1 X142.296 Y123.87 E.03304
G1 X141.454 Y124.609 E.03327
G1 X140.586 Y125.306 E.03304
G1 X139.682 Y125.968 E.03327
G1 X138.757 Y126.587 E.03304
G1 X137.799 Y127.168 E.03327
G1 X136.911 Y127.656 E.03007
;WIDTH:0.403914
G1 X135.822 Y128.197 E.0365
;WIDTH:0.399944
G1 X134.792 Y128.651 E.03341
G1 X133.755 Y129.054 E.03304
G1 X132.796 Y129.38 E.03007
;WIDTH:0.403914
G1 X131.63 Y129.724 E.0365
;WIDTH:0.399948
G1 X130.537 Y129.992 E.03341
G1 X129.445 Y130.209 E.03304
G1 X128.337 Y130.379 E.03327
G1 X127.231 Y130.5 E.03304
G1 X126.113 Y130.572 E.03327
G1 X124.996 Y130.598 E.03316
G1 X123.883 Y130.573 E.03304
G1 X122.773 Y130.501 E.03304
G1 X121.659 Y130.379 E.03327
G1 X120.552 Y130.206 E.03327
G1 X119.463 Y129.992 E.03292
G1 X118.371 Y129.724 E.03339
G1 X117.303 Y129.413 E.03304
G1 X116.343 Y129.087 E.03007
;WIDTH:0.403914
G1 X115.208 Y128.651 E.0365
;WIDTH:0.399946
G1 X114.182 Y128.199 E.03329
G1 X113.184 Y127.707 E.03304
G1 X112.201 Y127.168 E.03327
G1 X111.25 Y126.591 E.03304
G1 X110.318 Y125.968 E.03327
G1 X109.42 Y125.31 E.03304
G1 X108.546 Y124.609 E.03327
G1 X107.709 Y123.875 E.03304
G1 X106.9 Y123.1 E.03327
G1 X106.13 Y122.296 E.03304
G1 X105.391 Y121.454 E.03327
G1 X104.694 Y120.586 E.03304
G1 X104.032 Y119.682 E.03327
G1 X103.413 Y118.757 E.03304
G1 X102.832 Y117.799 E.03327
G1 X102.344 Y116.911 E.03007
;WIDTH:0.403914
G1 X101.803 Y115.822 E.0365
;WIDTH:0.399946
G1 X101.349 Y114.792 E.03341
G1 X100.946 Y113.755 E.03304
G1 X100.62 Y112.796 E.03007
;WIDTH:0.403918
G1 X100.276 Y111.63 E.0365
;WIDTH:0.399948
G1 X100.008 Y110.537 E.03341
G1 X99.791 Y109.445 E.03304
G1 X99.621 Y108.337 E.03327
G1 X99.5 Y107.231 E.03304
G1 X99.428 Y106.113 E.03327
G1 X99.402 Y104.996 E.03316
G1 X99.427 Y103.883 E.03304
G1 X99.499 Y102.773 E.03304
G1 X99.621 Y101.659 E.03327
G1 X99.794 Y100.552 E.03327
G1 X100.008 Y99.463 E.03292
G1 X100.276 Y98.371 E.03339
G1 X100.587 Y97.303 E.03304
G1 X100.913 Y96.343 E.03007
;WIDTH:0.40392
G1 X101.349 Y95.208 E.0365
;WIDTH:0.399946
G1 X101.801 Y94.182 E.03329
G1 X102.296 Y93.177 E.03327
G1 X102.832 Y92.201 E.03304
G1 X103.413 Y91.243 E.03327
G1 X104.032 Y90.318 E.03304
G1 X104.69 Y89.42 E.03304
G1 X105.353 Y88.593 E.03149
M204 S1000
; stop printing object dome.stl id:0 copy 0
M106 S84.15
;LAYER_CHANGE
;Z:0.4
;HEIGHT:0.2
;BEFORE_LAYER_CHANGE
G92 E0.0
;0.4


G1 Z.4 F720
;AFTER_LAYER_CHANGE
;0.4
M104 S210 ; set temperature
; printing object dome.stl id:0 copy 0
G1 X105.357 Y88.596 F10800
M204 S800
;WIDTH:0.399908
G1 F974
G1 X106.128 Y87.712 E.03481
G1 X106.903 Y86.903 E.03326
G1 X107.707 Y86.133 E.03303
G1 X108.549 Y85.394 E.03326
G1 X109.417 Y84.698 E.03303
G1 X110.32 Y84.035 E.03326
G1 X111.252 Y83.413 E.03326
G1 X112.209 Y82.838 E.03314
;WIDTH:0.410218
G1 X113.185 Y82.302 E.03401
G1 X114.179 Y81.807 E.0339
;WIDTH:0.399944
G1 X115.202 Y81.356 E.0332
G1 X116.246 Y80.95 E.03326
G1 X117.308 Y80.59 E.03327
G1 X118.376 Y80.279 E.03303
G1 X119.464 Y80.012 E.03327
G1 X120.556 Y79.795 E.03303
G1 X121.656 Y79.626 E.03303
G1 X122.769 Y79.504 E.03326
G1 X123.888 Y79.431 E.03326
;WIDTH:0.410228
G1 X125 Y79.412 E.03398
G1 X126.12 Y79.436 E.03421
;WIDTH:0.39982
G1 X127.227 Y79.504 E.03291
;WIDTH:0.399926
G1 X128.337 Y79.625 E.03315
G1 X129.444 Y79.795 E.03326
G1 X130.543 Y80.014 E.03326
G1 X131.624 Y80.279 E.03303
G1 X132.692 Y80.59 E.03303
G1 X133.471 Y80.854 E.02439
G1 X134.798 Y81.356 E.04212
G1 X135.816 Y81.804 E.03303
G1 X136.821 Y82.3 E.03326
;WIDTH:0.410226
G1 X137.794 Y82.84 E.03398
G1 X138.747 Y83.412 E.03393
;WIDTH:0.399908
G1 X139.68 Y84.041 E.03342
G1 X140.577 Y84.693 E.03292
G1 X141.451 Y85.394 E.03326
G1 X142.293 Y86.133 E.03326
G1 X143.097 Y86.903 E.03303
G1 X143.867 Y87.707 E.03303
G1 X144.606 Y88.549 E.03326
G1 X145.302 Y89.417 E.03303
G1 X145.965 Y90.32 E.03326
G1 X146.587 Y91.252 E.03326
G1 X147.162 Y92.209 E.03314
;WIDTH:0.410218
G1 X147.698 Y93.185 E.03401
G1 X148.193 Y94.179 E.0339
;WIDTH:0.399942
G1 X148.644 Y95.202 E.0332
G1 X149.05 Y96.246 E.03326
G1 X149.41 Y97.308 E.03327
G1 X149.721 Y98.376 E.03303
G1 X149.988 Y99.464 E.03327
;WIDTH:0.410224
G1 X150.2 Y100.557 E.03398
G1 X150.374 Y101.654 E.03393
;WIDTH:0.399942
G1 X150.496 Y102.773 E.03343
G1 X150.564 Y103.888 E.03314
;WIDTH:0.39982
G1 X150.593 Y104.996 E.03291
;WIDTH:0.39993
G1 X150.593 Y105.001 E.00014
G1 X150.569 Y106.112 E.03301
G1 X150.496 Y107.231 E.03326
G1 X150.374 Y108.344 E.03326
G1 X150.199 Y109.447 E.03314
;WIDTH:0.399818
G1 X149.986 Y110.543 E.03314
;WIDTH:0.399942
G1 X149.721 Y111.624 E.03303
G1 X149.408 Y112.7 E.03326
;WIDTH:0.410226
G1 X149.045 Y113.752 E.03398
G1 X148.647 Y114.789 E.03393
;WIDTH:0.399904
G1 X148.196 Y115.816 E.03331
G1 X147.7 Y116.821 E.03326
;WIDTH:0.410226
G1 X147.16 Y117.794 E.03398
G1 X146.588 Y118.747 E.03393
;WIDTH:0.399906
G1 X145.959 Y119.68 E.03342
G1 X145.307 Y120.577 E.03292
G1 X144.606 Y121.451 E.03326
G1 X143.867 Y122.293 E.03326
M73 Q2 S17
G1 X143.097 Y123.097 E.03303
G1 X142.293 Y123.867 E.03303
G1 X141.451 Y124.606 E.03326
G1 X140.583 Y125.302 E.03303
G1 X139.68 Y125.965 E.03326
M73 P2 R17
G1 X138.748 Y126.587 E.03326
G1 X137.791 Y127.162 E.03314
;WIDTH:0.410218
G1 X136.815 Y127.698 E.03401
G1 X135.821 Y128.193 E.0339
;WIDTH:0.399944
G1 X134.798 Y128.644 E.0332
G1 X133.754 Y129.05 E.03326
G1 X132.692 Y129.41 E.03327
G1 X131.624 Y129.721 E.03303
G1 X130.536 Y129.988 E.03327
;WIDTH:0.410224
G1 X129.443 Y130.2 E.03398
G1 X128.346 Y130.374 E.03393
;WIDTH:0.399942
G1 X127.227 Y130.496 E.03343
G1 X126.112 Y130.564 E.03314
;WIDTH:0.399822
G1 X125.004 Y130.593 E.03291
;WIDTH:0.39993
G1 X123.888 Y130.569 E.03315
G1 X122.769 Y130.496 E.03326
G1 X121.656 Y130.374 E.03326
G1 X120.553 Y130.199 E.03314
;WIDTH:0.399822
G1 X119.457 Y129.986 E.03314
;WIDTH:0.399944
G1 X118.376 Y129.721 E.03303
G1 X117.3 Y129.408 E.03326
;WIDTH:0.410226
G1 X116.248 Y129.045 E.03398
G1 X115.211 Y128.647 E.03393
;WIDTH:0.399906
G1 X114.184 Y128.196 E.03331
G1 X113.179 Y127.7 E.03326
;WIDTH:0.410226
G1 X112.206 Y127.16 E.03398
G1 X111.253 Y126.588 E.03393
;WIDTH:0.399908
G1 X110.32 Y125.959 E.03342
G1 X109.423 Y125.307 E.03292
G1 X108.549 Y124.606 E.03326
G1 X107.707 Y123.867 E.03326
G1 X106.903 Y123.097 E.03303
G1 X106.133 Y122.293 E.03303
G1 X105.394 Y121.451 E.03326
G1 X104.698 Y120.583 E.03303
G1 X104.035 Y119.68 E.03326
G1 X103.413 Y118.748 E.03326
G1 X102.838 Y117.791 E.03314
;WIDTH:0.410218
G1 X102.302 Y116.815 E.03401
G1 X101.807 Y115.821 E.0339
;WIDTH:0.399944
G1 X101.356 Y114.798 E.0332
G1 X100.95 Y113.754 E.03326
G1 X100.59 Y112.692 E.03327
G1 X100.279 Y111.624 E.03303
G1 X100.012 Y110.536 E.03327
;WIDTH:0.410226
G1 X99.8 Y109.443 E.03398
G1 X99.626 Y108.346 E.03393
;WIDTH:0.399942
G1 X99.504 Y107.227 E.03343
G1 X99.436 Y106.112 E.03314
;WIDTH:0.399822
G1 X99.407 Y105.004 E.03291
;WIDTH:0.39993
G1 X99.431 Y103.888 E.03315
G1 X99.504 Y102.769 E.03326
G1 X99.626 Y101.656 E.03326
G1 X99.801 Y100.553 E.03314
;WIDTH:0.39982
G1 X100.014 Y99.457 E.03314
;WIDTH:0.399944
G1 X100.279 Y98.376 E.03303
G1 X100.592 Y97.3 E.03326
;WIDTH:0.410228
G1 X100.955 Y96.248 E.03398
G1 X101.353 Y95.211 E.03393
;WIDTH:0.399906
G1 X101.804 Y94.184 E.03331
G1 X102.3 Y93.179 E.03326
;WIDTH:0.41023
G1 X102.84 Y92.206 E.03398
G1 X103.412 Y91.253 E.03393
;WIDTH:0.399908
G1 X104.041 Y90.32 E.03342
G1 X104.693 Y89.423 E.03292
G1 X105.319 Y88.642 E.0297
M204 S1000
; stop printing object dome.stl id:0 copy 0
M106 S170.85
;LAYER_CHANGE
;Z:0.6
;HEIGHT:0.2
;BEFORE_LAYER_CHANGE
G92 E0.0
;0.6


G1 Z.6 F720
;AFTER_LAYER_CHANGE
;0.6
; printing object dome.stl id:0 copy 0
G1 X105.323 Y88.645 F10800
M204 S800
;WIDTH:0.399944
G1 F965
G1 X106.131 Y87.715 E.03658
G1 X106.906 Y86.906 E.03326
G1 X107.715 Y86.131 E.03326
G1 X108.552 Y85.398 E.03303
G1 X109.425 Y84.697 E.03326
G1 X110.323 Y84.039 E.03303
G1 X111.254 Y83.416 E.03326
G1 X112.205 Y82.839 E.03303
G1 X113.181 Y82.304 E.03303
G1 X114.186 Y81.808 E.03326
G1 X115.204 Y81.36 E.03303
G1 X116.248 Y80.954 E.03326
G1 X117.309 Y80.594 E.03326
G1 X118.377 Y80.283 E.03303
G1 X119.458 Y80.018 E.03303
G1 X120.556 Y79.8 E.03326
G1 X121.656 Y79.63 E.03303
G1 X122.77 Y79.508 E.03326
G1 X123.888 Y79.435 E.03326
G1 X125 Y79.411 E.03303
G1 X126.112 Y79.435 E.03303
G1 X127.23 Y79.508 E.03326
G1 X128.344 Y79.63 E.03326
G1 X129.444 Y79.8 E.03303
G1 X130.542 Y80.018 E.03326
G1 X131.623 Y80.283 E.03303
G1 X132.691 Y80.594 E.03303
G1 X133.752 Y80.954 E.03326
G1 X134.796 Y81.36 E.03326
G1 X135.814 Y81.808 E.03303
G1 X136.819 Y82.304 E.03326
G1 X137.795 Y82.839 E.03303
G1 X138.746 Y83.416 E.03303
G1 X139.677 Y84.039 E.03326
G1 X140.581 Y84.701 E.03326
G1 X141.448 Y85.398 E.03303
G1 X142.285 Y86.131 E.03303
G1 X143.094 Y86.906 E.03326
G1 X143.869 Y87.715 E.03326
G1 X144.602 Y88.552 E.03303
G1 X145.299 Y89.419 E.03303
G1 X145.961 Y90.323 E.03326
G1 X146.584 Y91.254 E.03326
G1 X147.161 Y92.205 E.03303
G1 X147.696 Y93.181 E.03303
G1 X148.192 Y94.186 E.03326
G1 X148.64 Y95.204 E.03303
G1 X149.046 Y96.248 E.03326
G1 X149.406 Y97.309 E.03326
G1 X149.717 Y98.377 E.03303
G1 X149.982 Y99.458 E.03303
G1 X150.2 Y100.556 E.03326
G1 X150.37 Y101.656 E.03303
G1 X150.492 Y102.77 E.03326
G1 X150.565 Y103.888 E.03326
G1 X150.589 Y105 E.03303
G1 X150.565 Y106.112 E.03303
G1 X150.492 Y107.23 E.03326
G1 X150.37 Y108.344 E.03326
G1 X150.2 Y109.444 E.03303
G1 X149.982 Y110.542 E.03326
G1 X149.717 Y111.623 E.03303
G1 X149.406 Y112.691 E.03303
G1 X149.046 Y113.752 E.03326
G1 X148.64 Y114.796 E.03326
G1 X148.192 Y115.814 E.03303
G1 X147.696 Y116.819 E.03326
G1 X147.161 Y117.795 E.03303
G1 X146.584 Y118.746 E.03303
G1 X145.961 Y119.677 E.03326
G1 X145.299 Y120.581 E.03326
G1 X144.602 Y121.448 E.03303
G1 X143.869 Y122.285 E.03303
G1 X143.094 Y123.094 E.03326
G1 X142.285 Y123.869 E.03326
G1 X141.448 Y124.602 E.03303
G1 X140.575 Y125.303 E.03326
G1 X139.677 Y125.961 E.03303
G1 X138.746 Y126.584 E.03326
G1 X137.795 Y127.161 E.03303
G1 X136.819 Y127.696 E.03303
G1 X135.814 Y128.192 E.03326
G1 X134.796 Y128.64 E.03303
G1 X133.752 Y129.046 E.03326
M73 Q3 S17
G1 X132.691 Y129.406 E.03326
G1 X131.623 Y129.717 E.03303
G1 X130.542 Y129.982 E.03303
G1 X129.444 Y130.2 E.03326
G1 X128.344 Y130.37 E.03303
M73 P3 R17
G1 X127.23 Y130.492 E.03326
G1 X126.112 Y130.565 E.03326
G1 X125 Y130.589 E.03303
G1 X123.888 Y130.565 E.03303
G1 X122.77 Y130.492 E.03326
G1 X121.656 Y130.37 E.03326
G1 X120.556 Y130.2 E.03303
G1 X119.458 Y129.982 E.03326
G1 X118.377 Y129.717 E.03303
G1 X117.309 Y129.406 E.03303
G1 X116.248 Y129.046 E.03326
G1 X115.204 Y128.64 E.03326
G1 X114.186 Y128.192 E.03303
G1 X113.181 Y127.696 E.03326
G1 X112.205 Y127.161 E.03303
G1 X111.254 Y126.584 E.03303
G1 X110.323 Y125.961 E.03326
G1 X109.419 Y125.299 E.03326
G1 X108.552 Y124.602 E.03303
G1 X107.715 Y123.869 E.03303
G1 X106.906 Y123.094 E.03326
G1 X106.131 Y122.285 E.03326
G1 X105.398 Y121.448 E.03303
G1 X104.697 Y120.575 E.03326
G1 X104.039 Y119.677 E.03303
G1 X103.416 Y118.746 E.03326
G1 X102.839 Y117.795 E.03303
G1 X102.304 Y116.819 E.03303
G1 X101.808 Y115.814 E.03326
G1 X101.36 Y114.796 E.03303
G1 X100.954 Y113.752 E.03326
G1 X100.594 Y112.691 E.03326
G1 X100.283 Y111.623 E.03303
G1 X100.018 Y110.542 E.03303
G1 X99.8 Y109.444 E.03326
G1 X99.63 Y108.344 E.03303
G1 X99.508 Y107.23 E.03326
G1 X99.435 Y106.112 E.03326
G1 X99.411 Y105 E.03303
G1 X99.435 Y103.888 E.03303
G1 X99.508 Y102.77 E.03326
G1 X99.63 Y101.656 E.03326
G1 X99.8 Y100.556 E.03303
G1 X100.018 Y99.458 E.03326
G1 X100.283 Y98.377 E.03303
G1 X100.594 Y97.309 E.03303
G1 X100.954 Y96.248 E.03326
G1 X101.36 Y95.204 E.03326
G1 X101.808 Y94.186 E.03303
G1 X102.304 Y93.181 E.03326
G1 X102.839 Y92.205 E.03303
G1 X103.421 Y91.248 E.03326
G1 X104.039 Y90.323 E.03303
G1 X104.697 Y89.425 E.03303
G1 X105.285 Y88.692 E.02792
M204 S1000
; stop printing object dome.stl id:0 copy 0
M106 S255
;LAYER_CHANGE
;Z:0.8
;HEIGHT:0.2
;BEFORE_LAYER_CHANGE
G92 E0.0
;0.8


G1 Z.8 F720
;AFTER_LAYER_CHANGE
;0.8
; printing object dome.stl id:0 copy 0
G1 X105.288 Y88.695 F10800
M204 S800
;WIDTH:0.399946
G1 F965
G1 X106.137 Y87.715 E.03847
G1 X106.906 Y86.912 E.03302
G1 X107.715 Y86.137 E.03325
