; generated by PrusaSlicer 2.5.0+win64 on 2023-04-19 at 17:58:04 UTC

;

; external perimeters extrusion width = 0.45mm
; perimeters extrusion width = 0.45mm
; infill extrusion width = 0.45mm
; solid infill extrusion width = 0.45mm
; top infill extrusion width = 0.40mm
; first layer extrusion width = 0.42mm

M73 P0 R22
M73 Q0 S22
M201 X1000 Y1000 Z200 E5000 ; sets maximum accelerations, mm/sec^2
M203 X200.0 Y200.0 Z12.0 E120.0
M204 P1250.0 R1250.0 T1250.0
M205 X8.00 Y8.00 Z0.40 E4.50 ; sets the jerk limits, mm/sec
M205 S0 T0 ; sets the minimum extruding and travel feed rate, mm/sec
M107
;TYPE:Custom
M862.3 P "MK3S" ; printer model check
M862.1 P0.4 ; nozzle diameter check
M115 U3.10.1 ; tell printer latest fw version
G90 ; use absolute coordinates
M83 ; extruder relative mode
M104 S215.0
M140 S60.0
M190 S60 ; wait for bed temp
M109 S215 ; wait for extruder temp
G28 W ; home all without mesh bed level
G80 ; mesh bed leveling
G1 Z0.2 F720.0
G1 Y-3.0 Z0.2 F1000.0
G92 E0
G1 X60.0 Z0.2 E9.0 F1000.0
G1 X100.0 Z0.2 E12.5 F1000.0
G92 E0
M221 S95

; Don't change E values below. Excessive value can damage the printer.

M907 E538 ; set extruder motor current
G21 ; set units to millimeters
G90 ; use absolute coordinates
M83 ; use relative distances for extrusion
M900 K0.05 ; Filament gcode LA 1.5
M900 K30 ; Filament gcode LA 1.0
M107
;LAYER_CHANGE
;Z:0.2
;HEIGHT:0.2
;BEFORE_LAYER_CHANGE
G92 E0.0
;0.2


G1 E-.8 F2100
G1 Z0.4 F720.0
;AFTER_LAYER_CHANGE
;0.2
G1 X103.874 Y87.247 Z0.4 F10800.0
G1 Z0.2 F720.0
G1 E.8 F2100
M204 S800.0
;TYPE:Skirt/Brim
;WIDTH:0.42
G1 F1200
G1 X104.67 Y86.341 Z0.2 E0.03781
G1 X105.484 Y85.491 Z0.2 E0.0369
G1 X106.341 Y84.67 Z0.2 E0.03722
G1 X107.26 Y83.863 Z0.2 E0.03834
G1 X108.204 Y83.106 Z0.2 E0.03795
G1 X109.182 Y82.389 Z0.2 E0.03801
G1 X110.192 Y81.715 Z0.2 E0.03808
G1 X111.22 Y81.092 Z0.2 E0.03768
G1 X112.278 Y80.513 Z0.2 E0.03782
G1 X113.358 Y79.982 Z0.2 E0.03774
G1 X114.435 Y79.508 Z0.2 E0.0369
G1 X115.541 Y79.077 Z0.2 E0.03722
G1 X116.689 Y78.687 Z0.2 E0.03801
G1 X117.855 Y78.346 Z0.2 E0.03808
G1 X119.039 Y78.057 Z0.2 E0.03821
G1 X120.23 Y77.821 Z0.2 E0.03808
G1 X121.42 Y77.639 Z0.2 E0.03775
G1 X122.617 Y77.508 Z0.2 E0.03775
G1 X123.818 Y77.431 Z0.2 E0.03774
G1 X124.978 Y77.405 Z0.2 E0.03639
G1 X126.079 Y77.428 Z0.2 E0.03453
G1 X127.378 Y77.508 Z0.2 E0.04081
G1 X128.58 Y77.639 Z0.2 E0.0379
G1 X129.795 Y77.825 Z0.2 E0.03854
G1 X130.994 Y78.064 Z0.2 E0.03834
G1 X132.163 Y78.351 Z0.2 E0.03774
G1 X133.277 Y78.676 Z0.2 E0.03638
G1 X134.32 Y79.029 Z0.2 E0.03453
G1 X135.535 Y79.496 Z0.2 E0.04081
G1 X136.642 Y79.981 Z0.2 E0.03789
G1 X137.73 Y80.517 Z0.2 E0.03801
G1 X138.795 Y81.101 Z0.2 E0.03808
G1 X139.831 Y81.73 Z0.2 E0.03801
G1 X140.846 Y82.409 Z0.2 E0.03827
G1 X141.816 Y83.121 Z0.2 E0.03774
G1 X142.734 Y83.858 Z0.2 E0.0369
G1 X143.626 Y84.64 Z0.2 E0.03722
G1 X144.497 Y85.472 Z0.2 E0.03774
G1 X145.33 Y86.341 Z0.2 E0.03775
G1 X146.131 Y87.254 Z0.2 E0.03808
G1 X146.894 Y88.204 Z0.2 E0.03821
G1 X147.611 Y89.182 Z0.2 E0.03801
G1 X148.285 Y90.192 Z0.2 E0.03808
G1 X148.908 Y91.22 Z0.2 E0.03768
G1 X149.487 Y92.278 Z0.2 E0.03782
G1 X150.018 Y93.358 Z0.2 E0.03774
G1 X150.492 Y94.435 Z0.2 E0.0369
G1 X150.923 Y95.541 Z0.2 E0.03722
G1 X151.313 Y96.689 Z0.2 E0.03801
M73 P0 R21
G1 X151.654 Y97.855 Z0.2 E0.03808
G1 X151.943 Y99.039 Z0.2 E0.03821
G1 X152.179 Y100.23 Z0.2 E0.03808
G1 X152.361 Y101.42 Z0.2 E0.03775
G1 X152.492 Y102.617 Z0.2 E0.03774
G1 X152.568 Y103.799 Z0.2 E0.03715
G1 X152.595 Y104.978 Z0.2 E0.03697
G1 X152.569 Y106.182 Z0.2 E0.03774
G1 X152.49 Y107.4 Z0.2 E0.03827
G1 X152.358 Y108.607 Z0.2 E0.03808
G1 X152.174 Y109.797 Z0.2 E0.03776
G1 X151.936 Y110.992 Z0.2 E0.0382
G1 X151.649 Y112.161 Z0.2 E0.03775
G1 X151.311 Y113.319 Z0.2 E0.03782
G1 X150.923 Y114.459 Z0.2 E0.03774
G1 X150.495 Y115.557 Z0.2 E0.03697
G1 X150.018 Y116.644 Z0.2 E0.03722
G1 X149.483 Y117.73 Z0.2 E0.03794
G1 X148.899 Y118.795 Z0.2 E0.03808
G1 X148.27 Y119.831 Z0.2 E0.03802
M73 Q0 S21
G1 X147.593 Y120.844 Z0.2 E0.03819
G1 X146.891 Y121.801 Z0.2 E0.03722
G1 X146.153 Y122.721 Z0.2 E0.03697
G1 X145.358 Y123.628 Z0.2 E0.03782
G1 X144.528 Y124.497 Z0.2 E0.03768
G1 X143.657 Y125.331 Z0.2 E0.03782
G1 X142.746 Y126.131 Z0.2 E0.03801
G1 X141.796 Y126.894 Z0.2 E0.0382
G1 X140.818 Y127.611 Z0.2 E0.03801
G1 X139.81 Y128.284 Z0.2 E0.03801
G1 X138.78 Y128.908 Z0.2 E0.03775
G1 X137.722 Y129.487 Z0.2 E0.03782
G1 X136.642 Y130.018 Z0.2 E0.03774
G1 X135.565 Y130.492 Z0.2 E0.0369
G1 X134.459 Y130.923 Z0.2 E0.03722
G1 X133.311 Y131.313 Z0.2 E0.03801
G1 X132.145 Y131.654 Z0.2 E0.03808
G1 X130.961 Y131.943 Z0.2 E0.03821
G1 X129.77 Y132.179 Z0.2 E0.03808
G1 X128.58 Y132.361 Z0.2 E0.03775
G1 X127.383 Y132.492 Z0.2 E0.03774
G1 X126.201 Y132.568 Z0.2 E0.03715
G1 X125.022 Y132.595 Z0.2 E0.03697
G1 X123.818 Y132.569 Z0.2 E0.03774
G1 X122.6 Y132.49 Z0.2 E0.03827
G1 X121.393 Y132.358 Z0.2 E0.03808
G1 X120.195 Y132.173 Z0.2 E0.03801
G1 X119.008 Y131.936 Z0.2 E0.03794
G1 X117.839 Y131.649 Z0.2 E0.03775
G1 X116.681 Y131.311 Z0.2 E0.03782
M73 Q1 S21
G1 X115.541 Y130.923 Z0.2 E0.03774
G1 X114.443 Y130.495 Z0.2 E0.03697
G1 X113.356 Y130.018 Z0.2 E0.03722
G1 X112.27 Y129.483 Z0.2 E0.03794
G1 X111.205 Y128.899 Z0.2 E0.03808
G1 X110.169 Y128.27 Z0.2 E0.03802
M73 P1 R21
G1 X109.156 Y127.593 Z0.2 E0.03819
G1 X108.206 Y126.895 Z0.2 E0.03697
G1 X107.279 Y126.153 Z0.2 E0.03722
G1 X106.372 Y125.358 Z0.2 E0.03781
G1 X105.503 Y124.528 Z0.2 E0.03768
G1 X104.669 Y123.657 Z0.2 E0.03782
G1 X103.869 Y122.746 Z0.2 E0.03801
G1 X103.106 Y121.796 Z0.2 E0.0382
G1 X102.389 Y120.818 Z0.2 E0.03801
G1 X101.716 Y119.81 Z0.2 E0.03801
G1 X101.092 Y118.78 Z0.2 E0.03775
G1 X100.513 Y117.722 Z0.2 E0.03782
G1 X99.982 Y116.642 Z0.2 E0.03774
G1 X99.505 Y115.557 Z0.2 E0.03715
G1 X99.077 Y114.459 Z0.2 E0.03697
G1 X98.687 Y113.311 Z0.2 E0.03801
G1 X98.346 Y112.145 Z0.2 E0.03808
G1 X98.057 Y110.961 Z0.2 E0.03821
G1 X97.821 Y109.77 Z0.2 E0.03808
G1 X97.639 Y108.58 Z0.2 E0.03775
G1 X97.508 Y107.383 Z0.2 E0.03774
G1 X97.432 Y106.201 Z0.2 E0.03715
G1 X97.405 Y105.022 Z0.2 E0.03697
G1 X97.431 Y103.818 Z0.2 E0.03774
G1 X97.51 Y102.6 Z0.2 E0.03827
G1 X97.642 Y101.393 Z0.2 E0.03808
G1 X97.826 Y100.203 Z0.2 E0.03776
G1 X98.064 Y99.008 Z0.2 E0.0382
G1 X98.351 Y97.839 Z0.2 E0.03775
G1 X98.689 Y96.681 Z0.2 E0.03782
G1 X99.077 Y95.541 Z0.2 E0.03774
G1 X99.505 Y94.443 Z0.2 E0.03697
G1 X99.982 Y93.356 Z0.2 E0.03722
G1 X100.517 Y92.27 Z0.2 E0.03794
G1 X101.101 Y91.205 Z0.2 E0.03808
G1 X101.73 Y90.169 Z0.2 E0.03801
G1 X102.407 Y89.156 Z0.2 E0.0382
G1 X103.12 Y88.186 Z0.2 E0.03775
G1 X103.836 Y87.294 Z0.2 E0.03587
M204 S1000.0
G1 X104.13 Y87.53 Z0.2 F10800.0
M204 S800.0
G1 F1200
G1 X104.945 Y86.599 Z0.2 E0.03879
G1 X105.753 Y85.755 Z0.2 E0.03664
G1 X106.599 Y84.945 Z0.2 E0.03671
G1 X107.499 Y84.155 Z0.2 E0.03756
G1 X108.43 Y83.407 Z0.2 E0.03743
G1 X109.395 Y82.7 Z0.2 E0.0375
G1 X110.391 Y82.035 Z0.2 E0.03756
G1 X111.405 Y81.421 Z0.2 E0.03716
G1 X112.448 Y80.85 Z0.2 E0.0373
G1 X113.513 Y80.325 Z0.2 E0.03723
G1 X114.583 Y79.855 Z0.2 E0.03664
G1 X115.674 Y79.43 Z0.2 E0.03671
G1 X116.806 Y79.045 Z0.2 E0.03749
G1 X117.957 Y78.71 Z0.2 E0.03756
G1 X119.116 Y78.426 Z0.2 E0.03743
G1 X120.291 Y78.193 Z0.2 E0.03756
G1 X121.465 Y78.013 Z0.2 E0.03723
G1 X122.646 Y77.884 Z0.2 E0.03723
G1 X123.83 Y77.808 Z0.2 E0.03723
G1 X124.982 Y77.782 Z0.2 E0.03613
G1 X126.067 Y77.805 Z0.2 E0.03402
G1 X127.351 Y77.884 Z0.2 E0.04032
G1 X128.535 Y78.013 Z0.2 E0.03735
G1 X129.733 Y78.197 Z0.2 E0.03802
G1 X130.908 Y78.431 Z0.2 E0.03756
G1 X132.061 Y78.714 Z0.2 E0.03723
G1 X133.168 Y79.037 Z0.2 E0.03613
G1 X134.196 Y79.385 Z0.2 E0.03403
G1 X135.396 Y79.846 Z0.2 E0.04031
G1 X136.486 Y80.325 Z0.2 E0.03735
G1 X137.559 Y80.853 Z0.2 E0.03749
G1 X138.61 Y81.429 Z0.2 E0.03756
G1 X139.632 Y82.05 Z0.2 E0.0375
G1 X140.626 Y82.715 Z0.2 E0.0375
G1 X141.583 Y83.418 Z0.2 E0.03723
G1 X142.494 Y84.149 Z0.2 E0.03664
G1 X143.375 Y84.921 Z0.2 E0.03671
G1 X144.233 Y85.742 Z0.2 E0.03723
G1 X145.055 Y86.599 Z0.2 E0.03723
G1 X145.845 Y87.499 Z0.2 E0.03757
G1 X146.593 Y88.43 Z0.2 E0.03743
G1 X147.3 Y89.395 Z0.2 E0.0375
G1 X147.965 Y90.391 Z0.2 E0.03756
G1 X148.579 Y91.405 Z0.2 E0.03716
G1 X149.15 Y92.448 Z0.2 E0.0373
G1 X149.675 Y93.513 Z0.2 E0.03723
G1 X150.145 Y94.583 Z0.2 E0.03664
G1 X150.57 Y95.674 Z0.2 E0.03671
G1 X150.955 Y96.806 Z0.2 E0.03749
G1 X151.29 Y97.957 Z0.2 E0.03756
G1 X151.574 Y99.116 Z0.2 E0.03743
G1 X151.807 Y100.291 Z0.2 E0.03756
G1 X151.987 Y101.465 Z0.2 E0.03723
G1 X152.116 Y102.645 Z0.2 E0.03723
G1 X152.192 Y103.812 Z0.2 E0.03665
G1 X152.218 Y104.982 Z0.2 E0.03671
G1 X152.192 Y106.169 Z0.2 E0.03723
G1 X152.115 Y107.363 Z0.2 E0.03749
G1 X151.985 Y108.554 Z0.2 E0.03756
G1 X151.804 Y109.727 Z0.2 E0.03724
G1 X151.569 Y110.906 Z0.2 E0.03768
G1 X151.286 Y112.059 Z0.2 E0.03724
G1 X150.952 Y113.201 Z0.2 E0.0373
G1 X150.57 Y114.326 Z0.2 E0.03723
G1 X150.145 Y115.417 Z0.2 E0.03671
G1 X149.674 Y116.489 Z0.2 E0.03671
G1 X149.147 Y117.559 Z0.2 E0.03742
G1 X148.571 Y118.61 Z0.2 E0.03756
G1 X147.95 Y119.632 Z0.2 E0.0375
G1 X147.286 Y120.624 Z0.2 E0.03742
G1 X146.594 Y121.568 Z0.2 E0.03671
G1 X145.861 Y122.481 Z0.2 E0.03671
G1 X145.077 Y123.376 Z0.2 E0.0373
G1 X144.258 Y124.233 Z0.2 E0.03716
G1 X143.399 Y125.056 Z0.2 E0.0373
G1 X142.501 Y125.845 Z0.2 E0.0375
G1 X141.57 Y126.592 Z0.2 E0.03742
G1 X140.605 Y127.299 Z0.2 E0.03749
G1 X139.611 Y127.963 Z0.2 E0.03749
G1 X138.595 Y128.579 Z0.2 E0.03724
G1 X137.552 Y129.15 Z0.2 E0.0373
G1 X136.487 Y129.675 Z0.2 E0.03723
G1 X135.417 Y130.145 Z0.2 E0.03664
G1 X134.326 Y130.57 Z0.2 E0.03671
G1 X133.194 Y130.955 Z0.2 E0.03749
G1 X132.043 Y131.29 Z0.2 E0.03756
G1 X130.884 Y131.574 Z0.2 E0.03743
G1 X129.709 Y131.807 Z0.2 E0.03756
G1 X128.535 Y131.987 Z0.2 E0.03723
G1 X127.355 Y132.116 Z0.2 E0.03723
G1 X126.188 Y132.192 Z0.2 E0.03665
G1 X125.018 Y132.218 Z0.2 E0.03671
G1 X123.831 Y132.192 Z0.2 E0.03723
G1 X122.637 Y132.115 Z0.2 E0.03749
G1 X121.446 Y131.985 Z0.2 E0.03756
G1 X120.264 Y131.802 Z0.2 E0.0375
G1 X119.094 Y131.569 Z0.2 E0.03742
G1 X117.941 Y131.286 Z0.2 E0.03724
G1 X116.799 Y130.952 Z0.2 E0.0373
G1 X115.674 Y130.57 Z0.2 E0.03723
G1 X114.583 Y130.145 Z0.2 E0.03671
G1 X113.511 Y129.674 Z0.2 E0.03671
G1 X112.441 Y129.147 Z0.2 E0.03742
G1 X111.39 Y128.571 Z0.2 E0.03756
G1 X110.368 Y127.95 Z0.2 E0.0375
G1 X109.376 Y127.286 Z0.2 E0.03742
G1 X108.432 Y126.594 Z0.2 E0.03671
G1 X107.518 Y125.861 Z0.2 E0.03671
G1 X106.624 Y125.077 Z0.2 E0.0373
G1 X105.767 Y124.258 Z0.2 E0.03717
G1 X104.944 Y123.399 Z0.2 E0.0373
G1 X104.155 Y122.501 Z0.2 E0.0375
G1 X103.408 Y121.57 Z0.2 E0.03742
G1 X102.701 Y120.605 Z0.2 E0.03749
G1 X102.037 Y119.611 Z0.2 E0.03749
G1 X101.421 Y118.595 Z0.2 E0.03724
G1 X100.85 Y117.552 Z0.2 E0.0373
G1 X100.325 Y116.487 Z0.2 E0.03723
G1 X99.855 Y115.417 Z0.2 E0.03664
G1 X99.43 Y114.326 Z0.2 E0.03671
G1 X99.045 Y113.194 Z0.2 E0.03749
G1 X98.71 Y112.043 Z0.2 E0.03756
G1 X98.426 Y110.884 Z0.2 E0.03743
G1 X98.193 Y109.709 Z0.2 E0.03756
G1 X98.013 Y108.535 Z0.2 E0.03723
G1 X97.884 Y107.355 Z0.2 E0.03723
G1 X97.808 Y106.188 Z0.2 E0.03665
G1 X97.782 Y105.018 Z0.2 E0.03671
G1 X97.808 Y103.831 Z0.2 E0.03723
G1 X97.885 Y102.637 Z0.2 E0.03749
G1 X98.015 Y101.446 Z0.2 E0.03756
G1 X98.196 Y100.273 Z0.2 E0.03724
G1 X98.431 Y99.094 Z0.2 E0.03768
G1 X98.714 Y97.941 Z0.2 E0.03724
G1 X99.048 Y96.799 Z0.2 E0.0373
G1 X99.43 Y95.674 Z0.2 E0.03723
G1 X99.855 Y94.583 Z0.2 E0.03671
G1 X100.326 Y93.511 Z0.2 E0.03671
G1 X100.853 Y92.441 Z0.2 E0.03742
G1 X101.429 Y91.39 Z0.2 E0.03756
G1 X102.05 Y90.368 Z0.2 E0.0375
G1 X102.714 Y89.376 Z0.2 E0.03742
G1 X103.416 Y88.419 Z0.2 E0.03723
G1 X104.093 Y87.577 Z0.2 E0.03386
M204 S1000.0
G1 X104.387 Y87.813 Z0.2 F10800.0
M204 S800.0
G1 F1200
G1 X105.22 Y86.857 Z0.2 E0.03977
G1 X106.017 Y86.025 Z0.2 E0.03613
G1 X106.857 Y85.22 Z0.2 E0.03646
G1 X107.745 Y84.441 Z0.2 E0.03705
G1 X108.663 Y83.704 Z0.2 E0.03691
G1 X109.614 Y83.007 Z0.2 E0.03698
G1 X110.59 Y82.356 Z0.2 E0.03678
G1 X111.59 Y81.75 Z0.2 E0.03665
G1 X112.618 Y81.186 Z0.2 E0.03679
G1 X113.669 Y80.669 Z0.2 E0.03671
G1 X114.731 Y80.202 Z0.2 E0.03639
G1 X115.807 Y79.783 Z0.2 E0.0362
G1 X116.916 Y79.406 Z0.2 E0.03672
G1 X118.05 Y79.075 Z0.2 E0.03705
G1 X119.194 Y78.795 Z0.2 E0.03691
G1 X120.353 Y78.565 Z0.2 E0.03704
G1 X121.51 Y78.387 Z0.2 E0.03672
G1 X122.674 Y78.26 Z0.2 E0.03672
G1 X123.843 Y78.184 Z0.2 E0.03671
G1 X124.987 Y78.16 Z0.2 E0.03587
G1 X126.056 Y78.182 Z0.2 E0.03353
G1 X127.323 Y78.26 Z0.2 E0.03982
G1 X128.49 Y78.387 Z0.2 E0.0368
G1 X129.664 Y78.568 Z0.2 E0.03724
G1 X130.823 Y78.799 Z0.2 E0.03704
G1 X131.96 Y79.078 Z0.2 E0.03671
G1 X133.058 Y79.398 Z0.2 E0.03587
G1 X134.071 Y79.741 Z0.2 E0.03353
G1 X135.256 Y80.196 Z0.2 E0.03982
G1 X136.331 Y80.669 Z0.2 E0.0368
G1 X137.389 Y81.19 Z0.2 E0.03698
G1 X138.418 Y81.754 Z0.2 E0.03679
G1 X139.426 Y82.366 Z0.2 E0.03698
G1 X140.406 Y83.021 Z0.2 E0.03698
M73 Q2 S21
G1 X141.35 Y83.714 Z0.2 E0.03672
G1 X142.255 Y84.441 Z0.2 E0.03639
G1 X143.123 Y85.202 Z0.2 E0.0362
G1 X143.969 Y86.011 Z0.2 E0.03672
G1 X144.78 Y86.857 Z0.2 E0.03672
M73 P2 R21
G1 X145.559 Y87.745 Z0.2 E0.03705
G1 X146.296 Y88.663 Z0.2 E0.03691
G1 X146.993 Y89.614 Z0.2 E0.03698
G1 X147.644 Y90.59 Z0.2 E0.03678
G1 X148.25 Y91.59 Z0.2 E0.03665
G1 X148.814 Y92.618 Z0.2 E0.03679
G1 X149.331 Y93.669 Z0.2 E0.03671
G1 X149.798 Y94.731 Z0.2 E0.03639
G1 X150.217 Y95.807 Z0.2 E0.0362
G1 X150.594 Y96.916 Z0.2 E0.03672
G1 X150.925 Y98.05 Z0.2 E0.03705
G1 X151.205 Y99.194 Z0.2 E0.03691
G1 X151.435 Y100.353 Z0.2 E0.03704
G1 X151.613 Y101.51 Z0.2 E0.03672
G1 X151.74 Y102.674 Z0.2 E0.03671
G1 X151.815 Y103.832 Z0.2 E0.03639
G1 X151.84 Y104.986 Z0.2 E0.0362
G1 X151.816 Y106.157 Z0.2 E0.03672
G1 X151.739 Y107.334 Z0.2 E0.03698
G1 X151.611 Y108.5 Z0.2 E0.03679
G1 X151.433 Y109.658 Z0.2 E0.03672
G1 X151.202 Y110.82 Z0.2 E0.03717
G1 X150.923 Y111.958 Z0.2 E0.03672
G1 X150.594 Y113.084 Z0.2 E0.03679
G1 X150.217 Y114.193 Z0.2 E0.03672
G1 X149.795 Y115.276 Z0.2 E0.03646
G1 X149.331 Y116.333 Z0.2 E0.0362
G1 X148.81 Y117.389 Z0.2 E0.03691
G1 X148.246 Y118.418 Z0.2 E0.03679
G1 X147.634 Y119.426 Z0.2 E0.03698
G1 X146.98 Y120.404 Z0.2 E0.0369
G1 X146.297 Y121.335 Z0.2 E0.0362
G1 X145.57 Y122.242 Z0.2 E0.03646
G1 X144.797 Y123.125 Z0.2 E0.03679
G1 X143.989 Y123.97 Z0.2 E0.03665
G1 X143.141 Y124.781 Z0.2 E0.03679
G1 X142.255 Y125.559 Z0.2 E0.03698
G1 X141.337 Y126.296 Z0.2 E0.03691
G1 X140.393 Y126.988 Z0.2 E0.03672
G1 X139.412 Y127.643 Z0.2 E0.03698
G1 X138.41 Y128.25 Z0.2 E0.03672
G1 X137.382 Y128.814 Z0.2 E0.03679
G1 X136.331 Y129.331 Z0.2 E0.03671
G1 X135.269 Y129.798 Z0.2 E0.03639
G1 X134.193 Y130.217 Z0.2 E0.0362
G1 X133.084 Y130.594 Z0.2 E0.03672
G1 X131.95 Y130.925 Z0.2 E0.03705
G1 X130.806 Y131.205 Z0.2 E0.03691
G1 X129.647 Y131.435 Z0.2 E0.03704
G1 X128.49 Y131.613 Z0.2 E0.03672
G1 X127.326 Y131.74 Z0.2 E0.03671
G1 X126.168 Y131.815 Z0.2 E0.03639
G1 X125.014 Y131.84 Z0.2 E0.0362
G1 X123.843 Y131.816 Z0.2 E0.03672
G1 X122.666 Y131.739 Z0.2 E0.03698
G1 X121.5 Y131.611 Z0.2 E0.03679
G1 X120.334 Y131.432 Z0.2 E0.03698
G1 X119.18 Y131.202 Z0.2 E0.03691
G1 X118.042 Y130.923 Z0.2 E0.03672
G1 X116.916 Y130.594 Z0.2 E0.03679
G1 X115.807 Y130.217 Z0.2 E0.03672
G1 X114.724 Y129.795 Z0.2 E0.03646
G1 X113.667 Y129.331 Z0.2 E0.0362
G1 X112.611 Y128.81 Z0.2 E0.03691
G1 X111.582 Y128.246 Z0.2 E0.03679
G1 X110.574 Y127.634 Z0.2 E0.03698
G1 X109.596 Y126.98 Z0.2 E0.0369
G1 X108.658 Y126.292 Z0.2 E0.03646
G1 X107.758 Y125.57 Z0.2 E0.0362
G1 X106.875 Y124.797 Z0.2 E0.03679
G1 X106.03 Y123.989 Z0.2 E0.03665
G1 X105.219 Y123.141 Z0.2 E0.03679
G1 X104.441 Y122.255 Z0.2 E0.03698
G1 X103.704 Y121.337 Z0.2 E0.03691
G1 X103.012 Y120.393 Z0.2 E0.03672
G1 X102.357 Y119.412 Z0.2 E0.03698
G1 X101.75 Y118.41 Z0.2 E0.03672
G1 X101.186 Y117.382 Z0.2 E0.03679
G1 X100.669 Y116.331 Z0.2 E0.03671
G1 X100.202 Y115.269 Z0.2 E0.03639
G1 X99.783 Y114.193 Z0.2 E0.0362
G1 X99.406 Y113.084 Z0.2 E0.03672
G1 X99.075 Y111.95 Z0.2 E0.03705
G1 X98.795 Y110.806 Z0.2 E0.03691
G1 X98.565 Y109.647 Z0.2 E0.03704
G1 X98.387 Y108.49 Z0.2 E0.03672
G1 X98.26 Y107.326 Z0.2 E0.03671
G1 X98.185 Y106.168 Z0.2 E0.03639
G1 X98.16 Y105.014 Z0.2 E0.0362
G1 X98.184 Y103.843 Z0.2 E0.03672
