; generated by PrusaSlicer 2.5.0+win64 on 2023-04-17 at 19:58:14 UTC

;

; external perimeters extrusion width = 0.45mm
; perimeters extrusion width = 0.45mm
; infill extrusion width = 0.45mm
; solid infill extrusion width = 0.45mm
; top infill extrusion width = 0.40mm
; first layer extrusion width = 0.42mm

M73 P0 R21
M73 Q0 S21
M201 X1000 Y1000 Z200 E5000 ; sets maximum accelerations, mm/sec^2
M203 X200.0 Y200.0 Z12.0 E120.0
M204 P1250.0 R1250.0 T1250.0
M205 X8.00 Y8.00 Z0.40 E4.50 ; sets the jerk limits, mm/sec
M205 S0 T0 ; sets the minimum extruding and travel feed rate, mm/sec
M107
;TYPE:Custom
M862.3 P "MK3S" ; printer model check
M862.1 P0.4 ; nozzle diameter check
M115 U3.10.1 ; tell printer latest fw version
G90 ; use absolute coordinates
M83 ; extruder relative mode
M104 S215.0
M140 S60 ; set bed temp
M190 S60 ; wait for bed temp
M109 S215 ; wait for extruder temp
G28 W ; home all without mesh bed level
G80 ; mesh bed leveling
G1 Z0.2 E0.03762 F720.0
G1 Y-3.0 Z0.2 E0.03762 F1000.0
G92 E0
G1 X60.0 Z0.2 E9.0 F1000.0
G1 X100.0 Z0.2 E12.5 F1000.0
G92 E0
M221 S95

; Don't change E values below. Excessive value can damage the printer.

M907 E538 ; set extruder motor current
G21 ; set units to millimeters
G90 ; use absolute coordinates
M83 ; use relative distances for extrusion
M900 K0.05 ; Filament gcode LA 1.5
M900 K30 ; Filament gcode LA 1.0
M107
;LAYER_CHANGE
;Z:0.2
;HEIGHT:0.2
;BEFORE_LAYER_CHANGE
G92 E0.0
;0.2


G1 E-.8 F2100
G1 Z0.4 E0.03762 F720.0
;AFTER_LAYER_CHANGE
;0.2
; printing object dome.stl id:0 copy 0
G1 X145.968 Y90.318 Z0.4 E0.03762 F10800.0
G1 Z0.2 E0.03762 F720.0
G1 E.8 F2100
M204 S800.0
;TYPE:External perimeter
;WIDTH:0.399946
G1 F900
G1 X146.591 Y91.25 Z0.2 E0.03327
G1 X147.168 Y92.201 Z0.2 E0.03304
G1 X147.656 Y93.089 Z0.2 E0.03007
;WIDTH:0.403916
G1 X148.197 Y94.178 Z0.2 E0.0365
;WIDTH:0.399944
G1 X148.651 Y95.208 Z0.2 E0.03341
G1 X149.054 Y96.245 Z0.2 E0.03304
G1 X149.38 Y97.204 Z0.2 E0.03007
;WIDTH:0.403916
G1 X149.724 Y98.37 Z0.2 E0.0365
;WIDTH:0.399942
G1 X149.992 Y99.463 Z0.2 E0.03341
G1 X150.209 Y100.555 Z0.2 E0.03304
G1 X150.378 Y101.655 Z0.2 E0.03304
G1 X150.5 Y102.769 Z0.2 E0.03327
G1 X150.572 Y103.887 Z0.2 E0.03327
G1 X150.598 Y105.0 Z0.2 E0.03305
;WIDTH:0.399946
G1 X150.573 Y106.117 Z0.2 E0.03314
G1 X150.501 Y107.227 Z0.2 E0.03304
G1 X150.379 Y108.341 Z0.2 E0.03327
G1 X150.224 Y109.347 Z0.2 E0.0302
G1 X149.991 Y110.541 Z0.2 E0.03612
G1 X149.727 Y111.621 Z0.2 E0.03303
G1 X149.413 Y112.697 Z0.2 E0.03327
G1 X149.087 Y113.657 Z0.2 E0.03007
;WIDTH:0.403914
G1 X148.651 Y114.792 Z0.2 E0.0365
;WIDTH:0.399946
G1 X148.199 Y115.818 Z0.2 E0.03329
G1 X147.707 Y116.816 Z0.2 E0.03304
G1 X147.168 Y117.799 Z0.2 E0.03327
G1 X146.591 Y118.75 Z0.2 E0.03304
G1 X145.968 Y119.682 Z0.2 E0.03327
G1 X145.31 Y120.58 Z0.2 E0.03304
G1 X144.609 Y121.454 Z0.2 E0.03327
G1 X143.875 Y122.291 Z0.2 E0.03304
G1 X143.1 Y123.1 Z0.2 E0.03327
G1 X142.296 Y123.87 Z0.2 E0.03304
G1 X141.454 Y124.609 Z0.2 E0.03327
G1 X140.586 Y125.306 Z0.2 E0.03304
G1 X139.682 Y125.968 Z0.2 E0.03327
G1 X138.757 Y126.587 Z0.2 E0.03304
G1 X137.799 Y127.168 Z0.2 E0.03327
G1 X136.911 Y127.656 Z0.2 E0.03007
;WIDTH:0.403914
G1 X135.822 Y128.197 Z0.2 E0.0365
;WIDTH:0.399944
G1 X134.792 Y128.651 Z0.2 E0.03341
G1 X133.755 Y129.054 Z0.2 E0.03304
G1 X132.796 Y129.38 Z0.2 E0.03007
;WIDTH:0.403914
G1 X131.63 Y129.724 Z0.2 E0.0365
;WIDTH:0.399948
G1 X130.537 Y129.992 Z0.2 E0.03341
G1 X129.445 Y130.209 Z0.2 E0.03304
G1 X128.337 Y130.379 Z0.2 E0.03327
G1 X127.231 Y130.5 Z0.2 E0.03304
G1 X126.113 Y130.572 Z0.2 E0.03327
G1 X124.996 Y130.598 Z0.2 E0.03316
G1 X123.883 Y130.573 Z0.2 E0.03304
G1 X122.773 Y130.501 Z0.2 E0.03304
G1 X121.659 Y130.379 Z0.2 E0.03327
G1 X120.552 Y130.206 Z0.2 E0.03327
G1 X119.463 Y129.992 Z0.2 E0.03292
G1 X118.371 Y129.724 Z0.2 E0.03339
G1 X117.303 Y129.413 Z0.2 E0.03304
G1 X116.343 Y129.087 Z0.2 E0.03007
;WIDTH:0.403914
G1 X115.208 Y128.651 Z0.2 E0.0365
;WIDTH:0.399946
G1 X114.182 Y128.199 Z0.2 E0.03329
G1 X113.184 Y127.707 Z0.2 E0.03304
G1 X112.201 Y127.168 Z0.2 E0.03327
G1 X111.25 Y126.591 Z0.2 E0.03304
G1 X110.318 Y125.968 Z0.2 E0.03327
G1 X109.42 Y125.31 Z0.2 E0.03304
G1 X108.546 Y124.609 Z0.2 E0.03327
G1 X107.709 Y123.875 Z0.2 E0.03304
G1 X106.9 Y123.1 Z0.2 E0.03327
G1 X106.13 Y122.296 Z0.2 E0.03304
G1 X105.391 Y121.454 Z0.2 E0.03327
G1 X104.694 Y120.586 Z0.2 E0.03304
G1 X104.032 Y119.682 Z0.2 E0.03327
G1 X103.413 Y118.757 Z0.2 E0.03304
G1 X102.832 Y117.799 Z0.2 E0.03327
G1 X102.344 Y116.911 Z0.2 E0.03007
;WIDTH:0.403914
M73 Q1 S21
G1 X101.803 Y115.822 Z0.2 E0.0365
;WIDTH:0.399946
G1 X101.349 Y114.792 Z0.2 E0.03341
G1 X100.946 Y113.755 Z0.2 E0.03304
M73 P1 R21
G1 X100.62 Y112.796 Z0.2 E0.03007
;WIDTH:0.403918
G1 X100.276 Y111.63 Z0.2 E0.0365
;WIDTH:0.399948
G1 X100.008 Y110.537 Z0.2 E0.03341
G1 X99.791 Y109.445 Z0.2 E0.03304
G1 X99.621 Y108.337 Z0.2 E0.03327
G1 X99.5 Y107.231 Z0.2 E0.03304
G1 X99.428 Y106.113 Z0.2 E0.03327
G1 X99.402 Y104.996 Z0.2 E0.03316
G1 X99.427 Y103.883 Z0.2 E0.03304
G1 X99.499 Y102.773 Z0.2 E0.03304
G1 X99.621 Y101.659 Z0.2 E0.03327
G1 X99.794 Y100.552 Z0.2 E0.03327
G1 X100.008 Y99.463 Z0.2 E0.03292
G1 X100.276 Y98.371 Z0.2 E0.03339
G1 X100.587 Y97.303 Z0.2 E0.03304
G1 X100.913 Y96.343 Z0.2 E0.03007
;WIDTH:0.40392
G1 X101.349 Y95.208 Z0.2 E0.0365
;WIDTH:0.399946
G1 X101.801 Y94.182 Z0.2 E0.03329
G1 X102.293 Y93.184 Z0.2 E0.03304
G1 X102.832 Y92.201 Z0.2 E0.03327
G1 X103.409 Y91.25 Z0.2 E0.03304
G1 X104.032 Y90.318 Z0.2 E0.03327
G1 X104.69 Y89.42 Z0.2 E0.03304
G1 X105.391 Y88.546 Z0.2 E0.03327
G1 X106.125 Y87.709 Z0.2 E0.03304
G1 X106.9 Y86.9 Z0.2 E0.03327
G1 X107.704 Y86.13 Z0.2 E0.03304
G1 X108.546 Y85.391 Z0.2 E0.03327
G1 X109.414 Y84.694 Z0.2 E0.03304
G1 X110.318 Y84.032 Z0.2 E0.03327
G1 X111.243 Y83.413 Z0.2 E0.03304
G1 X112.201 Y82.832 Z0.2 E0.03327
G1 X113.089 Y82.344 Z0.2 E0.03007
;WIDTH:0.403916
G1 X114.178 Y81.803 Z0.2 E0.0365
;WIDTH:0.399948
G1 X115.204 Y81.351 Z0.2 E0.03329
G1 X116.249 Y80.945 Z0.2 E0.03327
G1 X117.303 Y80.587 Z0.2 E0.03304
G1 X118.371 Y80.276 Z0.2 E0.03304
G1 X119.46 Y80.009 Z0.2 E0.03327
G1 X120.551 Y79.792 Z0.2 E0.03304
G1 X121.659 Y79.621 Z0.2 E0.03327
G1 X122.773 Y79.499 Z0.2 E0.03327
G1 X123.883 Y79.427 Z0.2 E0.03304
G1 X124.896 Y79.404 Z0.2 E0.03007
;WIDTH:0.40392
G1 X126.112 Y79.426 Z0.2 E0.0365
;WIDTH:0.399946
G1 X127.231 Y79.5 Z0.2 E0.03329
G1 X128.345 Y79.622 Z0.2 E0.03327
G1 X129.445 Y79.791 Z0.2 E0.03304
G1 X130.537 Y80.008 Z0.2 E0.03304
G1 X131.625 Y80.274 Z0.2 E0.03327
G1 X132.701 Y80.588 Z0.2 E0.03327
G1 X133.661 Y80.914 Z0.2 E0.03008
G1 X134.792 Y81.349 Z0.2 E0.03597
G1 X135.818 Y81.801 Z0.2 E0.03329
G1 X136.823 Y82.296 Z0.2 E0.03327
G1 X137.799 Y82.832 Z0.2 E0.03304
G1 X138.75 Y83.409 Z0.2 E0.03304
G1 X139.682 Y84.032 Z0.2 E0.03327
G1 X140.586 Y84.694 Z0.2 E0.03327
G1 X141.454 Y85.391 Z0.2 E0.03304
G1 X142.296 Y86.13 Z0.2 E0.03327
G1 X143.1 Y86.9 Z0.2 E0.03304
G1 X143.87 Y87.704 Z0.2 E0.03304
G1 X144.609 Y88.546 Z0.2 E0.03327
G1 X145.306 Y89.414 Z0.2 E0.03304
G1 X145.933 Y90.269 Z0.2 E0.03149
M204 S1000.0
G1 X145.799 Y90.68 Z0.2 E0.03762 F10800.0
; stop printing object dome.stl id:0 copy 0
M106 S84.15
;LAYER_CHANGE
;Z:0.4
;HEIGHT:0.2
;BEFORE_LAYER_CHANGE
G92 E0.0
;0.4


;WIPE_START
G1 F8640
G1 X146.591 Y91.25 E-0.27262
G1 X147.168 Y92.201 E-0.25698
G1 X147.648 Y93.076 E-0.2304
;WIPE_END
G1 E-.04 F2100
G1 Z0.6 E0.03762 F720.0
;AFTER_LAYER_CHANGE
;0.4
M104 S210.0
; printing object dome.stl id:0 copy 0
G1 X146.587 Y91.252 Z0.6 E0.03762 F10800.0
G1 Z0.4 E0.03762 F720.0
G1 E.8 F2100
M204 S800.0
;WIDTH:0.399908
G1 F900
G1 X147.162 Y92.209 Z0.4 E0.03314
;WIDTH:0.410218
G1 X147.698 Y93.185 Z0.4 E0.03401
G1 X148.193 Y94.179 Z0.4 E0.0339
;WIDTH:0.399942
G1 X148.644 Y95.202 Z0.4 E0.0332
G1 X149.05 Y96.246 Z0.4 E0.03326
G1 X149.41 Y97.308 Z0.4 E0.03327
G1 X149.721 Y98.376 Z0.4 E0.03303
G1 X149.988 Y99.464 Z0.4 E0.03327
;WIDTH:0.410224
G1 X150.2 Y100.557 Z0.4 E0.03398
G1 X150.374 Y101.654 Z0.4 E0.03393
;WIDTH:0.399942
G1 X150.496 Y102.773 Z0.4 E0.03343
G1 X150.564 Y103.888 Z0.4 E0.03314
;WIDTH:0.39982
G1 X150.593 Y104.996 Z0.4 E0.03291
;WIDTH:0.39993
G1 X150.593 Y105.001 Z0.4 E0.00014
G1 X150.569 Y106.112 Z0.4 E0.03301
G1 X150.496 Y107.231 Z0.4 E0.03326
G1 X150.374 Y108.344 Z0.4 E0.03326
G1 X150.199 Y109.447 Z0.4 E0.03314
;WIDTH:0.399818
G1 X149.986 Y110.543 Z0.4 E0.03314
;WIDTH:0.399942
G1 X149.721 Y111.624 Z0.4 E0.03303
G1 X149.408 Y112.7 Z0.4 E0.03326
;WIDTH:0.410226
G1 X149.045 Y113.752 Z0.4 E0.03398
G1 X148.647 Y114.789 Z0.4 E0.03393
;WIDTH:0.399904
G1 X148.196 Y115.816 Z0.4 E0.03331
G1 X147.7 Y116.821 Z0.4 E0.03326
;WIDTH:0.410226
G1 X147.16 Y117.794 Z0.4 E0.03398
G1 X146.588 Y118.747 Z0.4 E0.03393
;WIDTH:0.399906
G1 X145.959 Y119.68 Z0.4 E0.03342
G1 X145.307 Y120.577 Z0.4 E0.03292
G1 X144.606 Y121.451 Z0.4 E0.03326
G1 X143.867 Y122.293 Z0.4 E0.03326
G1 X143.097 Y123.097 Z0.4 E0.03303
G1 X142.293 Y123.867 Z0.4 E0.03303
G1 X141.451 Y124.606 Z0.4 E0.03326
G1 X140.583 Y125.302 Z0.4 E0.03303
G1 X139.68 Y125.965 Z0.4 E0.03326
G1 X138.748 Y126.587 Z0.4 E0.03326
G1 X137.791 Y127.162 Z0.4 E0.03314
;WIDTH:0.410218
G1 X136.815 Y127.698 Z0.4 E0.03401
G1 X135.821 Y128.193 Z0.4 E0.0339
;WIDTH:0.399944
G1 X134.798 Y128.644 Z0.4 E0.0332
G1 X133.754 Y129.05 Z0.4 E0.03326
G1 X132.692 Y129.41 Z0.4 E0.03327
G1 X131.624 Y129.721 Z0.4 E0.03303
G1 X130.536 Y129.988 Z0.4 E0.03327
;WIDTH:0.410224
G1 X129.443 Y130.2 Z0.4 E0.03398
G1 X128.346 Y130.374 Z0.4 E0.03393
;WIDTH:0.399942
G1 X127.227 Y130.496 Z0.4 E0.03343
G1 X126.112 Y130.564 Z0.4 E0.03314
;WIDTH:0.399822
G1 X125.004 Y130.593 Z0.4 E0.03291
;WIDTH:0.39993
G1 X123.888 Y130.569 Z0.4 E0.03315
G1 X122.769 Y130.496 Z0.4 E0.03326
G1 X121.656 Y130.374 Z0.4 E0.03326
G1 X120.553 Y130.199 Z0.4 E0.03314
;WIDTH:0.399822
G1 X119.457 Y129.986 Z0.4 E0.03314
;WIDTH:0.399944
G1 X118.376 Y129.721 Z0.4 E0.03303
G1 X117.3 Y129.408 Z0.4 E0.03326
;WIDTH:0.410226
G1 X116.248 Y129.045 Z0.4 E0.03398
G1 X115.211 Y128.647 Z0.4 E0.03393
;WIDTH:0.399906
G1 X114.184 Y128.196 Z0.4 E0.03331
G1 X113.179 Y127.7 Z0.4 E0.03326
;WIDTH:0.410226
G1 X112.206 Y127.16 Z0.4 E0.03398
G1 X111.253 Y126.588 Z0.4 E0.03393
;WIDTH:0.399908
G1 X110.32 Y125.959 Z0.4 E0.03342
G1 X109.423 Y125.307 Z0.4 E0.03292
G1 X108.549 Y124.606 Z0.4 E0.03326
G1 X107.707 Y123.867 Z0.4 E0.03326
G1 X106.903 Y123.097 Z0.4 E0.03303
G1 X106.133 Y122.293 Z0.4 E0.03303
G1 X105.394 Y121.451 Z0.4 E0.03326
G1 X104.698 Y120.583 Z0.4 E0.03303
G1 X104.035 Y119.68 Z0.4 E0.03326
G1 X103.413 Y118.748 Z0.4 E0.03326
G1 X102.838 Y117.791 Z0.4 E0.03314
;WIDTH:0.410218
G1 X102.302 Y116.815 Z0.4 E0.03401
G1 X101.807 Y115.821 Z0.4 E0.0339
;WIDTH:0.399944
G1 X101.356 Y114.798 Z0.4 E0.0332
G1 X100.95 Y113.754 Z0.4 E0.03326
G1 X100.59 Y112.692 Z0.4 E0.03327
G1 X100.279 Y111.624 Z0.4 E0.03303
G1 X100.012 Y110.536 Z0.4 E0.03327
;WIDTH:0.410226
G1 X99.8 Y109.443 Z0.4 E0.03398
G1 X99.626 Y108.346 Z0.4 E0.03393
;WIDTH:0.399942
G1 X99.504 Y107.227 Z0.4 E0.03343
G1 X99.436 Y106.112 Z0.4 E0.03314
;WIDTH:0.399822
G1 X99.407 Y105.004 Z0.4 E0.03291
;WIDTH:0.39993
G1 X99.431 Y103.888 Z0.4 E0.03315
G1 X99.504 Y102.769 Z0.4 E0.03326
G1 X99.626 Y101.656 Z0.4 E0.03326
G1 X99.801 Y100.553 Z0.4 E0.03314
;WIDTH:0.39982
G1 X100.014 Y99.457 Z0.4 E0.03314
;WIDTH:0.399944
G1 X100.279 Y98.376 Z0.4 E0.03303
G1 X100.592 Y97.3 Z0.4 E0.03326
;WIDTH:0.410228
G1 X100.955 Y96.248 Z0.4 E0.03398
G1 X101.353 Y95.211 Z0.4 E0.03393
;WIDTH:0.399906
G1 X101.804 Y94.184 Z0.4 E0.03331
G1 X102.3 Y93.179 Z0.4 E0.03326
;WIDTH:0.41023
G1 X102.84 Y92.206 Z0.4 E0.03398
G1 X103.412 Y91.253 Z0.4 E0.03393
;WIDTH:0.399908
G1 X104.041 Y90.32 Z0.4 E0.03342
M73 Q2 S21
G1 X104.693 Y89.423 Z0.4 E0.03292
G1 X105.394 Y88.549 Z0.4 E0.03326
G1 X106.133 Y87.707 Z0.4 E0.03326
G1 X106.903 Y86.903 Z0.4 E0.03303
M73 P2 R21
G1 X107.707 Y86.133 Z0.4 E0.03303
G1 X108.549 Y85.394 Z0.4 E0.03326
G1 X109.417 Y84.698 Z0.4 E0.03303
G1 X110.32 Y84.035 Z0.4 E0.03326
G1 X111.252 Y83.413 Z0.4 E0.03326
G1 X112.209 Y82.838 Z0.4 E0.03314
;WIDTH:0.410218
G1 X113.185 Y82.302 Z0.4 E0.03401
G1 X114.179 Y81.807 Z0.4 E0.0339
;WIDTH:0.399944
G1 X115.202 Y81.356 Z0.4 E0.0332
G1 X116.246 Y80.95 Z0.4 E0.03326
G1 X117.308 Y80.59 Z0.4 E0.03327
G1 X118.376 Y80.279 Z0.4 E0.03303
G1 X119.464 Y80.012 Z0.4 E0.03327
G1 X120.556 Y79.795 Z0.4 E0.03303
G1 X121.656 Y79.626 Z0.4 E0.03303
G1 X122.769 Y79.504 Z0.4 E0.03326
G1 X123.888 Y79.431 Z0.4 E0.03326
;WIDTH:0.410228
G1 X125.0 Y79.412 Z0.4 E0.03398
G1 X126.12 Y79.436 Z0.4 E0.03421
;WIDTH:0.39982
G1 X127.227 Y79.504 Z0.4 E0.03291
;WIDTH:0.399926
G1 X128.337 Y79.625 Z0.4 E0.03315
G1 X129.444 Y79.795 Z0.4 E0.03326
G1 X130.543 Y80.014 Z0.4 E0.03326
G1 X131.624 Y80.279 Z0.4 E0.03303
G1 X132.692 Y80.59 Z0.4 E0.03303
G1 X133.471 Y80.854 Z0.4 E0.02439
G1 X134.798 Y81.356 Z0.4 E0.04212
G1 X135.816 Y81.804 Z0.4 E0.03303
G1 X136.821 Y82.3 Z0.4 E0.03326
;WIDTH:0.410226
G1 X137.794 Y82.84 Z0.4 E0.03398
G1 X138.747 Y83.412 Z0.4 E0.03393
;WIDTH:0.399908
G1 X139.68 Y84.041 Z0.4 E0.03342
G1 X140.583 Y84.698 Z0.4 E0.03315
G1 X141.451 Y85.394 Z0.4 E0.03303
G1 X142.288 Y86.128 Z0.4 E0.03303
G1 X143.097 Y86.903 Z0.4 E0.03326
G1 X143.867 Y87.707 Z0.4 E0.03303
G1 X144.606 Y88.549 Z0.4 E0.03326
G1 X145.307 Y89.423 Z0.4 E0.03326
G1 X145.965 Y90.32 Z0.4 E0.03303
G1 X146.554 Y91.202 Z0.4 E0.03148
M204 S1000.0
G1 X146.401 Y91.606 Z0.4 E0.03762 F10800.0
; stop printing object dome.stl id:0 copy 0
M106 S170.85
;LAYER_CHANGE
;Z:0.6
;HEIGHT:0.2
;BEFORE_LAYER_CHANGE
G92 E0.0
;0.6


;WIPE_START
G1 F8640
G1 X147.162 Y92.209 E-0.27163
G1 X147.698 Y93.185 E-0.25713
G1 X148.145 Y94.082 E-0.23124
;WIPE_END
G1 E-.04 F2100
G1 Z0.8 E0.03762 F720.0
;AFTER_LAYER_CHANGE
;0.6
; printing object dome.stl id:0 copy 0
G1 X148.192 Y94.186 Z0.8 E0.03762 F10800.0
G1 Z0.6 E0.03762 F720.0
G1 E.8 F2100
M204 S800.0
;WIDTH:0.399948
G1 F900
G1 X148.64 Y95.204 Z0.6 E0.03303
G1 X149.046 Y96.248 Z0.6 E0.03326
G1 X149.406 Y97.309 Z0.6 E0.03326
G1 X149.717 Y98.377 Z0.6 E0.03303
G1 X149.982 Y99.458 Z0.6 E0.03303
G1 X150.2 Y100.556 Z0.6 E0.03326
G1 X150.37 Y101.656 Z0.6 E0.03303
G1 X150.492 Y102.77 Z0.6 E0.03326
G1 X150.565 Y103.888 Z0.6 E0.03326
G1 X150.589 Y105.0 Z0.6 E0.03303
G1 X150.565 Y106.112 Z0.6 E0.03303
G1 X150.492 Y107.23 Z0.6 E0.03326
G1 X150.37 Y108.344 Z0.6 E0.03326
G1 X150.2 Y109.444 Z0.6 E0.03303
G1 X149.983 Y110.535 Z0.6 E0.03303
M73 P2 R20
G1 X149.717 Y111.623 Z0.6 E0.03326
G1 X149.406 Y112.691 Z0.6 E0.03303
G1 X149.046 Y113.752 Z0.6 E0.03326
G1 X148.64 Y114.796 Z0.6 E0.03326
G1 X148.192 Y115.814 Z0.6 E0.03303
G1 X147.696 Y116.819 Z0.6 E0.03326
G1 X147.161 Y117.795 Z0.6 E0.03303
G1 X146.579 Y118.752 Z0.6 E0.03326
G1 X145.961 Y119.677 Z0.6 E0.03303
G1 X145.299 Y120.581 Z0.6 E0.03326
G1 X144.602 Y121.448 Z0.6 E0.03303
G1 X143.869 Y122.285 Z0.6 E0.03303
G1 X143.094 Y123.094 Z0.6 E0.03326
G1 X142.285 Y123.869 Z0.6 E0.03326
G1 X141.448 Y124.602 Z0.6 E0.03303
G1 X140.575 Y125.303 Z0.6 E0.03326
G1 X139.677 Y125.961 Z0.6 E0.03303
G1 X138.752 Y126.579 Z0.6 E0.03303
M73 Q2 S20
G1 X137.795 Y127.161 Z0.6 E0.03326
G1 X136.819 Y127.696 Z0.6 E0.03303
G1 X135.814 Y128.192 Z0.6 E0.03326
G1 X134.796 Y128.64 Z0.6 E0.03303
G1 X133.752 Y129.046 Z0.6 E0.03326
G1 X132.691 Y129.406 Z0.6 E0.03326
G1 X131.623 Y129.717 Z0.6 E0.03303
G1 X130.542 Y129.982 Z0.6 E0.03303
G1 X129.444 Y130.2 Z0.6 E0.03326
G1 X128.344 Y130.37 Z0.6 E0.03303
G1 X127.23 Y130.492 Z0.6 E0.03326
G1 X126.112 Y130.565 Z0.6 E0.03326
G1 X125.0 Y130.589 Z0.6 E0.03303
G1 X123.888 Y130.565 Z0.6 E0.03303
G1 X122.77 Y130.492 Z0.6 E0.03326
G1 X121.656 Y130.37 Z0.6 E0.03326
G1 X120.556 Y130.2 Z0.6 E0.03303
