G1 Z11.978 X102.334 Y105 E.03347 ; Do this move
G1 Z11.979 X102.355 Y104.011 E.03347
G1 Z11.981 X102.42 Y103.024 E.03347
G1 Z11.982 X102.528 Y102.042 E.03347
G1 Z11.984 X102.681 Y101.051 E.03392
G1 Z11.985 X102.871 Y100.094 E.03303
G1 Z11.986 X103.106 Y99.134 E.03348
G1 Z11.988 X103.383 Y98.184 E.03347
G1 Z11.989 X103.701 Y97.248 E.03347
G1 Z11.991 X104.059 Y96.326 E.03347
G1 Z11.992 X104.457 Y95.421 E.03347
G1 Z11.993 X104.895 Y94.534 E.03347
G1 Z11.995 X105.37 Y93.667 E.03347
G1 Z11.996 X105.891 Y92.81 E.03392
G1 Z11.997 X106.433 Y91.999 E.03303
G1 Z11.999 X107.018 Y91.202 E.03347
G1 Z12.000 X107.527 Y90.566 E.02757 ; End of G commands
M204 S1000 ; Hey this is a marlin command
M104 S0 ; turn off temperature
M140 S0 ; turn off heatbed
M107 ; turn off fan
M84 ; disable motors
; max_layer_z = 25.8
M73 P100 R0
M73 Q100 S0