; generated by PrusaSlicer 2.5.0+win64 on 2023-04-21 at 16:42:20 UTC

; 

; external perimeters extrusion width = 0.45mm
; perimeters extrusion width = 0.45mm
; infill extrusion width = 0.45mm
; solid infill extrusion width = 0.45mm
; top infill extrusion width = 0.40mm
; first layer extrusion width = 0.42mm

M73 P0 R32
M73 Q0 S32
M201 X1000 Y1000 Z200 E5000 ; sets maximum accelerations, mm/sec^2
M203 X200 Y200 Z12 E120 ; sets maximum feedrates, mm / sec
M204 P1250 R1250 T1250 ; sets acceleration (P, T) and retract acceleration (R), mm/sec^2
M205 X8.00 Y8.00 Z0.40 E4.50 ; sets the jerk limits, mm/sec
M205 S0 T0 ; sets the minimum extruding and travel feed rate, mm/sec
M107
;TYPE:Custom
M862.3 P "MK3S" ; printer model check
M862.1 P0.4 ; nozzle diameter check
M115 U3.10.1 ; tell printer latest fw version
G90 ; use absolute coordinates
M83 ; extruder relative mode
M104 S215 ; set extruder temp
M140 S60 ; set bed temp
M190 S60 ; wait for bed temp
M109 S215 ; wait for extruder temp
G28 W ; home all without mesh bed level
G80 ; mesh bed leveling
G1 Z0.2 F720
G1 Y-3 F1000 ; go outside print area
G92 E0
G1 X60 E9 F1000 ; intro line
G1 X100 E12.5 F1000 ; intro line
G92 E0
M221 S95

; Don't change E values below. Excessive value can damage the printer.

M907 E538 ; set extruder motor current
G21 ; set units to millimeters
G90 ; use absolute coordinates
M83 ; use relative distances for extrusion
M900 K0.05 ; Filament gcode LA 1.5
M900 K30 ; Filament gcode LA 1.0
M107
;LAYER_CHANGE
;Z:0.2
;HEIGHT:0.2
;BEFORE_LAYER_CHANGE
G92 E0.0
;0.2


G1 E-.8 F2100
G1 Z.4 F720
;AFTER_LAYER_CHANGE
;0.2
; printing object Test print.stl id:0 copy 0
G1 X41.873 Y41.199 F10800
G1 Z.2 F720
G1 E.8 F2100
M204 S800
;TYPE:External perimeter
;WIDTH:0.420027
G1 F1200
G1 X44.73 Y37.64 E.1431
G1 X47.734 Y34.215 E.14284
G1 X50.895 Y30.912 E.14336
G1 X54.206 Y27.742 E.14375
G1 X57.646 Y24.725 E.14349
G1 X61.212 Y21.863 E.14336
G1 X64.899 Y19.16 E.14336
G1 X68.687 Y16.629 E.14284
G1 X72.595 Y14.257 E.14336
G1 X76.625 Y12.046 E.14413
G1 X80.726 Y10.024 E.14336
G1 X84.903 Y8.187 E.1431
G1 X89.149 Y6.535 E.14284
G1 X93.493 Y5.06 E.14388
G1 X97.891 Y3.779 E.14361
G1 X102.32 Y2.695 E.14297
G1 X106.792 Y1.806 E.14297
G1 X111.326 Y1.108 E.14388
G1 X115.871 Y.61 E.14336
G1 X120.433 Y.311 E.14336
G1 X124.942 Y.213 E.14142
;WIDTH:0.420967
G1 X129.558 Y.311 E.14514
;WIDTH:0.420027
G1 X134.137 Y.611 E.14388
G1 X138.665 Y1.107 E.14284
G1 X143.196 Y1.803 E.14375
G1 X147.692 Y2.698 E.14374
G1 X152.133 Y3.785 E.14336
G1 X156.511 Y5.061 E.14297
G1 X160.851 Y6.535 E.14375
G1 X165.112 Y8.193 E.14336
G1 X169.286 Y10.029 E.14297
G1 X173.375 Y12.046 E.14297
G1 X177.383 Y14.245 E.14336
G1 X181.292 Y16.616 E.14336
G1 X185.094 Y19.155 E.14336
G1 X188.791 Y21.866 E.14375
G1 X192.36 Y24.73 E.14349
G1 X195.803 Y27.75 E.14362
G1 X199.105 Y30.912 E.14336
G1 X202.258 Y34.206 E.14297
G1 X205.265 Y37.634 E.14297
G1 X208.127 Y41.199 E.14336
G1 X210.84 Y44.899 E.14388
G1 X213.371 Y48.687 E.14284
G1 X215.743 Y52.595 E.14336
G1 X217.943 Y56.603 E.14336
G1 X219.965 Y60.703 E.14336
G1 X221.813 Y64.903 E.14388
G1 X223.469 Y69.16 E.14323
G1 X224.942 Y73.501 E.14375
G1 X226.219 Y77.883 E.1431
G1 X227.302 Y82.308 E.14284
G1 X228.194 Y86.792 E.14336
G1 X228.892 Y91.326 E.14388
G1 X229.39 Y95.871 E.14336
M73 Q1 S32
G1 X229.689 Y100.433 E.14336
M73 P1 R32
G1 X229.788 Y105.004 E.14336
G1 X229.689 Y109.575 E.14336
G1 X229.389 Y114.137 E.14336
G1 X228.893 Y118.665 E.14284
G1 X228.197 Y123.196 E.14375
G1 X227.302 Y127.692 E.14374
G1 X226.215 Y132.133 E.14336
G1 X224.939 Y136.511 E.14297
G1 X223.473 Y140.828 E.14297
G1 X221.807 Y145.112 E.14413
G1 X219.971 Y149.286 E.14297
G1 X217.954 Y153.375 E.14297
G1 X215.747 Y157.398 E.14387
G1 X213.371 Y161.313 E.14362
G1 X210.83 Y165.114 E.14336
M73 P1 R31
M73 Q1 S31
G1 X208.142 Y168.781 E.14258
G1 X205.27 Y172.36 E.14387
G1 X202.255 Y175.797 E.14336
G1 X199.105 Y179.088 E.14284
G1 X195.794 Y182.258 E.14375
G1 X192.354 Y185.275 E.14349
G1 X188.788 Y188.137 E.14336
G1 X185.114 Y190.83 E.14284
G1 X181.299 Y193.38 E.14387
G1 X177.383 Y195.755 E.14362
G1 X173.375 Y197.954 E.14336
G1 X169.297 Y199.965 E.14259
G1 X165.097 Y201.813 E.14388
G1 X160.84 Y203.469 E.14323
G1 X156.522 Y204.935 E.14297
G1 X152.133 Y206.215 E.14336
G1 X147.676 Y207.305 E.14388
G1 X143.184 Y208.198 E.14362
G1 X138.674 Y208.892 E.1431
G1 X134.145 Y209.388 E.14284
G1 X129.567 Y209.689 E.14387
G1 X124.996 Y209.788 E.14336
G1 X120.425 Y209.689 E.14336
G1 X115.879 Y209.391 E.14284
G1 X111.335 Y208.893 E.14336
G1 X106.804 Y208.197 E.14375
G1 X102.308 Y207.302 E.14374
G1 X97.867 Y206.215 E.14336
G1 X93.489 Y204.939 E.14297
G1 X89.149 Y203.465 E.14375
G1 X84.888 Y201.807 E.14336
G1 X80.714 Y199.971 E.14297
G1 X76.603 Y197.943 E.14375
G1 X72.602 Y195.747 E.1431
G1 X68.708 Y193.384 E.14284
G1 X64.906 Y190.845 E.14336
G1 X61.199 Y188.127 E.14413
G1 X57.64 Y185.27 E.1431
G1 X54.215 Y182.266 E.14284
G1 X50.912 Y179.105 E.14336
G1 X47.742 Y175.794 E.14375
G1 X44.725 Y172.354 E.14349
G1 X41.863 Y168.788 E.14336
G1 X39.17 Y165.114 E.14284
G1 X36.62 Y161.299 E.14387
G1 X34.257 Y157.405 E.14284
G1 X32.057 Y153.397 E.14336
G1 X30.024 Y149.274 E.14413
G1 X28.187 Y145.097 E.1431
G1 X26.535 Y140.851 E.14284
G1 X25.065 Y136.522 E.14336
G1 X23.781 Y132.117 E.14387
G1 X22.695 Y127.676 E.14336
G1 X21.803 Y123.192 E.14336
G1 X21.11 Y118.69 E.14284
G1 X20.61 Y114.129 E.14387
G1 X20.311 Y109.567 E.14336
G1 X20.212 Y105.012 E.14284
G1 X20.311 Y100.425 E.14388
G1 X20.611 Y95.863 E.14336
G1 X21.107 Y91.335 E.14284
G1 X21.803 Y86.804 E.14375
G1 X22.698 Y82.308 E.14374
G1 X23.785 Y77.867 E.14336
G1 X25.061 Y73.489 E.14297
G1 X26.535 Y69.149 E.14375
G1 X28.193 Y64.888 E.14336
G1 X30.029 Y60.714 E.14297
G1 X32.046 Y56.625 E.14297
M73 Q2 S31
G1 X34.253 Y52.602 E.14387
M73 P2 R31
G1 X36.629 Y48.687 E.14362
G1 X39.155 Y44.906 E.14259
G1 X41.837 Y41.247 E.14225
M204 S1000
G1 X42.27 Y41.251 F10800
G1 X42.165 Y41.438
M204 S800
;WIDTH:0.419984
G1 F1200
G1 X45.019 Y37.883 E.14296
G1 X48.02 Y34.461 E.1427
G1 X51.167 Y31.173 E.1427
G1 X54.461 Y28.02 E.14296
G1 X57.889 Y25.014 E.14295
G1 X61.442 Y22.162 E.14283
G1 X65.109 Y19.474 E.14257
G1 X68.896 Y16.943 E.14283
G1 X72.794 Y14.577 E.14296
G1 X76.792 Y12.384 E.14296
G1 X80.878 Y10.369 E.14283
G1 X85.044 Y8.536 E.1427
G1 X89.285 Y6.887 E.1427
G1 X93.603 Y5.421 E.14296
G1 X97.98 Y4.145 E.14295
G1 X102.397 Y3.065 E.14257
G1 X106.869 Y2.175 E.14295
G1 X111.372 Y1.482 E.14283
G1 X115.9 Y.986 E.14283
G1 X120.442 Y.688 E.1427
G1 X124.95 Y.59 E.1414
;WIDTH:0.420967
G1 X129.55 Y.688 E.14463
;WIDTH:0.419983
G1 X134.1 Y.986 E.14296
G1 X138.624 Y1.481 E.1427
G1 X143.135 Y2.176 E.14308
G1 X147.603 Y3.065 E.14283
G1 X152.02 Y4.145 E.14257
G1 X156.393 Y5.42 E.14282
G1 X160.715 Y6.887 E.14309
G1 X164.956 Y8.536 E.1427
G1 X169.122 Y10.369 E.1427
G1 X173.212 Y12.386 E.14296
G1 X177.209 Y14.579 E.14296
G1 X181.1 Y16.94 E.1427
G1 X184.885 Y19.469 E.1427
G1 X188.562 Y22.165 E.14296
G1 X192.117 Y25.019 E.14295
G1 X195.539 Y28.02 E.1427
G1 X198.833 Y31.173 E.14296
G1 X201.98 Y34.461 E.1427
G1 X204.981 Y37.883 E.1427
G1 X207.833 Y41.435 E.14283
G1 X210.526 Y45.109 E.14283
G1 X213.057 Y48.896 E.14283
G1 X215.425 Y52.798 E.14308
G1 X217.612 Y56.785 E.14257
G1 X219.627 Y60.87 E.14283
G1 X221.464 Y65.044 E.14296
G1 X223.116 Y69.293 E.14295
G1 X224.579 Y73.603 E.1427
G1 X225.853 Y77.972 E.1427
G1 X226.937 Y82.405 E.14309
G1 X227.825 Y86.869 E.1427
G1 X228.518 Y91.372 E.14283
G1 X229.014 Y95.9 E.14283
G1 X229.312 Y100.442 E.1427
G1 X229.411 Y105 E.14296
G1 X229.312 Y109.55 E.1427
G1 X229.014 Y114.1 E.14296
G1 X228.518 Y118.632 E.14296
G1 X227.824 Y123.135 E.14283
G1 X226.937 Y127.595 E.14257
G1 X225.855 Y132.02 E.14283
G1 X224.578 Y136.401 E.14308
G1 X223.115 Y140.711 E.1427
G1 X221.464 Y144.956 E.14283
G1 X219.631 Y149.122 E.1427
G1 X217.614 Y153.212 E.14296
G1 X215.421 Y157.209 E.14296
G1 X213.06 Y161.1 E.1427
G1 X210.531 Y164.885 E.1427
G1 X207.835 Y168.562 E.14296
G1 X204.981 Y172.117 E.14295
G1 X201.98 Y175.539 E.1427
G1 X198.833 Y178.827 E.1427
G1 X195.536 Y181.983 E.14308
G1 X192.117 Y184.981 E.14257
G1 X188.565 Y187.833 E.14283
G1 X184.884 Y190.531 E.14309
G1 X181.104 Y193.057 E.14257
G1 X177.206 Y195.423 E.14296
M73 Q3 S31
G1 X173.215 Y197.612 E.1427
M73 P3 R31
G1 X169.13 Y199.627 E.14283
G1 X164.956 Y201.464 E.14296
G1 X160.707 Y203.116 E.14295
G1 X156.397 Y204.579 E.1427
G1 X152.028 Y205.853 E.1427
G1 X147.595 Y206.937 E.14309
G1 X143.131 Y207.825 E.1427
G1 X138.628 Y208.518 E.14283
G1 X134.1 Y209.014 E.14283
G1 X129.558 Y209.312 E.1427
G1 X125 Y209.411 E.14296
G1 X120.45 Y209.312 E.1427
G1 X115.9 Y209.014 E.14296
G1 X111.368 Y208.518 E.14296
G1 X106.865 Y207.824 E.14283
G1 X102.405 Y206.937 E.14257
G1 X97.98 Y205.855 E.14283
G1 X93.599 Y204.578 E.14308
G1 X89.289 Y203.115 E.1427
G1 X85.044 Y201.464 E.14283
G1 X80.87 Y199.627 E.14296
G1 X76.788 Y197.614 E.1427
G1 X72.798 Y195.425 E.1427
G1 X68.9 Y193.06 E.14296
G1 X65.115 Y190.531 E.1427
G1 X61.438 Y187.835 E.14296
G1 X57.883 Y184.981 E.14295
G1 X54.461 Y181.98 E.1427
G1 X51.173 Y178.833 E.1427
G1 X48.017 Y175.536 E.14308
G1 X45.019 Y172.117 E.14257
G1 X42.167 Y168.565 E.14283
G1 X39.469 Y164.884 E.14309
G1 X36.943 Y161.104 E.14257
G1 X34.579 Y157.209 E.14283
;WIDTH:0.419984
G1 X32.384 Y153.208 E.14308
G1 X30.373 Y149.13 E.14257
G1 X28.536 Y144.956 E.14296
G1 X26.887 Y140.715 E.1427
G1 X25.421 Y136.397 E.14296
G1 X24.147 Y132.028 E.1427
G1 X23.065 Y127.603 E.14283
G1 X22.174 Y123.127 E.14308
G1 X21.482 Y118.628 E.1427
G1 X20.986 Y114.1 E.14283
G1 X20.688 Y109.558 E.1427
G1 X20.589 Y105 E.14296
G1 X20.688 Y100.442 E.14296
G1 X20.986 Y95.9 E.1427
G1 X21.482 Y91.368 E.14296
G1 X22.174 Y86.873 E.14257
G1 X23.063 Y82.405 E.14283
G1 X24.147 Y77.972 E.14309
G1 X25.42 Y73.607 E.14257
G1 X26.885 Y69.289 E.14296
G1 X28.536 Y65.044 E.14283
G1 X30.369 Y60.878 E.1427
G1 X32.388 Y56.785 E.14308
G1 X34.579 Y52.791 E.14283
G1 X36.94 Y48.9 E.1427
G1 X39.469 Y45.115 E.1427
G1 X42.129 Y41.487 E.14107
M204 S1000
G1 X42.012 Y41.069 F10800
; stop printing object Test print.stl id:0 copy 0
M106 S84.15
;LAYER_CHANGE
;Z:0.4
;HEIGHT:0.2
;BEFORE_LAYER_CHANGE
G92 E0.0
;0.4


;WIPE_START
G1 F8640
G1 X44.188 Y38.919 E-.76
;WIPE_END
G1 E-.04 F2100
G1 Z.6 F720
;AFTER_LAYER_CHANGE
;0.4
M104 S210 ; set temperature
; printing object Test print.stl id:0 copy 0
G1 X44.719 Y37.652 F10800
G1 Z.4 F720
G1 E.8 F2100
M204 S800
;WIDTH:0.421408
G1 X47.744 Y34.202 E.1444
G1 X50.894 Y30.912 E.14337
G1 X54.196 Y27.75 E.14388
G1 X57.646 Y24.724 E.1444
G1 X61.212 Y21.863 E.14388
G1 X64.906 Y19.155 E.14415
G1 X68.707 Y16.615 E.14388
G1 X72.618 Y14.248 E.14387
;WIDTH:0.421265
G1 X76.483 Y12.123 E.13876
;WIDTH:0.424257
G1 X80.703 Y10.034 E.14928
;WIDTH:0.421362
G1 X84.888 Y8.192 E.14388
G1 X89.16 Y6.53 E.14426
G1 X93.493 Y5.06 E.144
G1 X97.867 Y3.785 E.14335
G1 X102.324 Y2.694 E.14439
G1 X106.804 Y1.803 E.14374
G1 X111.335 Y1.106 E.14426
G1 X115.867 Y.61 E.14348
G1 X120.417 Y.311 E.14348
G1 X124.851 Y.214 E.13957
;WIDTH:0.424257
G1 X129.43 Y.307 E.1452
;WIDTH:0.421446
G1 X134.12 Y.609 E.14795
G1 X138.678 Y1.107 E.1443
G1 X143.184 Y1.801 E.14351
G1 X147.668 Y2.692 E.1439
G1 X152.133 Y3.785 E.14468
G1 X156.511 Y5.061 E.14351
G1 X160.706 Y6.485 E.13945
G1 X165.101 Y8.187 E.14835
G1 X169.29 Y10.031 E.14402
G1 X173.375 Y12.045 E.14338
G1 X177.405 Y14.256 E.14468
G1 X181.293 Y16.615 E.14312
G1 X185.094 Y19.155 E.1439
G1 X188.795 Y21.868 E.14442
M73 Q4 S31
G1 X192.36 Y24.73 E.1439
G1 X195.785 Y27.733 E.14338
M73 P4 R31
G1 X199.106 Y30.912 E.14468
G1 X202.267 Y34.215 E.1439
G1 X205.265 Y37.633 E.14312
G1 X208.137 Y41.212 E.14442
G1 X210.831 Y44.885 E.14338
G1 X213.371 Y48.686 E.1439
G1 X215.752 Y52.618 E.14467
;WIDTH:0.421265
G1 X217.877 Y56.483 E.13876
;WIDTH:0.424255
G1 X219.966 Y60.703 E.14928
;WIDTH:0.421361
G1 X221.808 Y64.888 E.14388
G1 X223.47 Y69.16 E.14426
G1 X224.94 Y73.493 E.144
G1 X226.219 Y77.879 E.14374
G1 X227.27 Y82.175 E.13919
;WIDTH:0.424259
G1 X228.195 Y86.791 E.14927
;WIDTH:0.421408
G1 X228.891 Y91.31 E.1439
G1 X229.39 Y95.867 E.14428
G1 X229.68 Y100.288 E.13944
G1 X229.789 Y105.004 E.14847
;WIDTH:0.421407
G1 X229.689 Y109.575 E.14388
G1 X229.391 Y114.121 E.14336
G1 X228.893 Y118.678 E.14427
G1 X228.199 Y123.184 E.1435
G1 X227.308 Y127.668 E.14388
G1 X226.215 Y132.133 E.14467
G1 X224.939 Y136.511 E.14349
G1 X223.515 Y140.706 E.13944
G1 X221.813 Y145.101 E.14833
G1 X219.969 Y149.29 E.14401
G1 X217.955 Y153.375 E.14337
G1 X215.744 Y157.405 E.14466
G1 X213.376 Y161.307 E.14362
G1 X210.845 Y165.094 E.14337
G1 X208.132 Y168.795 E.1444
G1 X205.27 Y172.36 E.14388
G1 X202.267 Y175.785 E.14337
G1 X199.088 Y179.106 E.14466
G1 X195.785 Y182.267 E.14388
G1 X192.367 Y185.265 E.14311
M73 P4 R30
M73 Q4 S30
G1 X188.788 Y188.137 E.1444
G1 X185.115 Y190.831 E.14337
G1 X181.314 Y193.371 E.14388
G1 X177.382 Y195.752 E.14465
;WIDTH:0.421264
G1 X173.517 Y197.877 E.13876
;WIDTH:0.424255
G1 X169.297 Y199.966 E.14928
;WIDTH:0.421362
G1 X165.112 Y201.808 E.14388
G1 X160.84 Y203.47 E.14426
G1 X156.507 Y204.94 E.144
G1 X152.121 Y206.219 E.14374
G1 X147.825 Y207.27 E.13919
;WIDTH:0.424259
G1 X143.209 Y208.195 E.14927
;WIDTH:0.421408
G1 X138.674 Y208.893 E.14442
G1 X134.273 Y209.375 E.13931
G1 X129.558 Y209.69 E.14872
G1 X125 Y209.789 E.1435
G1 X120.425 Y209.689 E.14402
G1 X115.879 Y209.391 E.14336
G1 X111.322 Y208.893 E.14427
G1 X106.791 Y208.195 E.14428
G1 X102.315 Y207.304 E.14362
G1 X97.891 Y206.222 E.14337
G1 X93.489 Y204.939 E.14427
G1 X89.294 Y203.515 E.13944
G1 X84.911 Y201.817 E.14793
G1 X80.71 Y199.969 E.14441
G1 X76.61 Y197.947 E.14388
G1 X72.616 Y195.756 E.14337
G1 X68.707 Y193.385 E.14389
G1 X64.906 Y190.845 E.14388
G1 X61.205 Y188.132 E.1444
G1 X57.64 Y185.27 E.14388
G1 X54.202 Y182.256 E.14388
G1 X50.912 Y179.106 E.14337
G1 X47.75 Y175.804 E.14388
G1 X44.724 Y172.354 E.1444
G1 X41.873 Y168.801 E.14337
G1 X39.169 Y165.115 E.14388
G1 X36.629 Y161.314 E.14388
G1 X34.248 Y157.382 E.14465
;WIDTH:0.421266
G1 X32.123 Y153.517 E.13876
;WIDTH:0.424255
G1 X30.034 Y149.297 E.14928
;WIDTH:0.421362
G1 X28.192 Y145.112 E.14388
G1 X26.53 Y140.84 E.14426
G1 X25.06 Y136.507 E.144
G1 X23.781 Y132.121 E.14374
G1 X22.73 Y127.825 E.13919
;WIDTH:0.424259
G1 X21.805 Y123.209 E.14927
;WIDTH:0.421408
G1 X21.107 Y118.674 E.14442
G1 X20.625 Y114.273 E.13931
G1 X20.311 Y109.583 E.14793
G1 X20.211 Y105 E.14428
G1 X20.311 Y100.425 E.14402
G1 X20.609 Y95.879 E.14336
G1 X21.107 Y91.322 E.14427
G1 X21.805 Y86.791 E.14428
G1 X22.696 Y82.315 E.14362
G1 X23.778 Y77.891 E.14337
G1 X25.061 Y73.489 E.14427
G1 X26.485 Y69.294 E.13944
G1 X28.183 Y64.911 E.14793
G1 X30.031 Y60.71 E.14441
G1 X32.053 Y56.61 E.14388
G1 X34.256 Y52.595 E.14414
G1 X36.629 Y48.686 E.14389
G1 X39.164 Y44.892 E.14363
G1 X41.868 Y41.205 E.14389
G1 X44.681 Y37.699 E.14148
M204 S1000
G1 X45.113 Y37.722 F10800
G1 X45.019 Y37.883
M204 S800
;WIDTH:0.421365
G1 F2100
G1 X48.02 Y34.461 E.14322
G1 X51.173 Y31.168 E.14348
G1 X54.464 Y28.018 E.14335
G1 X57.889 Y25.014 E.14335
G1 X61.439 Y22.165 E.14322
G1 X65.116 Y19.469 E.14348
G1 X68.9 Y16.941 E.14322
G1 X72.799 Y14.577 E.14348
;WIDTH:0.421265
G1 X76.665 Y12.454 E.13876
;WIDTH:0.424257
G1 X80.87 Y10.374 E.14876
;WIDTH:0.421362
G1 X85.044 Y8.537 E.14349
G1 X89.289 Y6.886 E.14335
G1 X93.607 Y5.421 E.14348
G1 X97.98 Y4.146 E.14335
G1 X102.397 Y3.065 E.14309
G1 X106.873 Y2.175 E.14361
G1 X111.376 Y1.482 E.14335
G1 X115.9 Y.987 E.14322
G1 X120.442 Y.689 E.14322
G1 X124.859 Y.592 E.13906
;WIDTH:0.424257
G1 X129.422 Y.686 E.14469
;WIDTH:0.421446
G1 X134.096 Y.986 E.14743
G1 X138.632 Y1.483 E.14364
G1 X143.135 Y2.176 E.14338
G1 X147.599 Y3.064 E.14325
G1 X152.027 Y4.148 E.14351
G1 X156.393 Y5.421 E.14312
G1 X160.585 Y6.843 E.13932
G1 X164.96 Y8.539 E.14769
G1 X169.126 Y10.372 E.14325
G1 X173.208 Y12.385 E.14325
G1 X177.209 Y14.58 E.14364
G1 X181.1 Y16.941 E.14325
G1 X184.884 Y19.469 E.14325
G1 X188.561 Y22.165 E.14351
G1 X192.111 Y25.014 E.14325
G1 X195.539 Y28.02 E.14351
G1 X198.832 Y31.173 E.14351
G1 X201.982 Y34.464 E.14338
G1 X204.981 Y37.883 E.14312
M73 Q5 S30
G1 X207.835 Y41.439 E.14351
M73 P5 R30
